;FLAVOR:RepRap
;TIME:853
;Filament used: 0.58932m
;Layer height: 0.1
;Generated with Cura_SteamEngine 3.5.1
T0
M190 S60
M104 S200
M109 S200
M82 ;absolute extrusion mode
G21       ;metric values
G90       ;absolute positioning
M82       ;set extruder to absolute mode
M107      ;start with the fan off
G28 Z0    ;home Z
G1 Z15.0 F840
G92 E0    ;zero the extruded length
G1 F200 E3              ;extrude 3mm of feed stock
G92 E0                  ;zero the extruded length again
G1 F840
;Put printing message on LCD screen
Tristan is my master
M83 ;relative extrusion mode
G1 F600 E-2.5
;LAYER_COUNT:8
;LAYER:0
M107
G0 F2100 X90.816 Y89.215 Z0.3
;TYPE:SKIRT
G1 F600 E2.5
G1 F2100 X91.148 Y88.913 E0.02239
G1 X93.527 Y87.006 E0.15211
G1 X93.897 Y86.746 E0.02256
G1 X96.559 Y85.113 E0.15581
G1 X96.955 Y84.903 E0.02236
G1 X99.735 Y83.643 E0.15228
G1 X100.105 Y83.499 E0.01981
G1 X102.352 Y82.766 E0.11792
G1 X102.736 Y82.664 E0.01982
G1 X105.781 Y82.032 E0.15515
G1 X106.119 Y81.979 E0.01707
G1 X107.689 Y81.806 E0.0788
G1 X107.917 Y81.788 E0.01141
G1 X109.474 Y81.716 E0.07776
G1 X109.812 Y81.716 E0.01686
G1 X112.881 Y81.863 E0.15329
G1 X113.325 Y81.912 E0.02229
G1 X116.364 Y82.44 E0.15389
G1 X116.699 Y82.515 E0.01713
G1 X118.215 Y82.93 E0.07842
G1 X118.54 Y83.036 E0.01705
G1 X121.49 Y84.154 E0.15739
G1 X121.902 Y84.34 E0.02255
G1 X124.571 Y85.757 E0.15076
G1 X124.858 Y85.927 E0.01664
G1 X126.195 Y86.804 E0.07977
G1 X126.472 Y87.006 E0.0171
G1 X128.851 Y88.914 E0.15215
G1 X129.182 Y89.215 E0.02232
G1 X131.358 Y91.457 E0.15587
G1 X131.654 Y91.803 E0.02272
G1 X133.522 Y94.292 E0.15526
G1 X133.772 Y94.674 E0.02278
G1 X135.33 Y97.414 E0.15725
G1 X135.506 Y97.765 E0.01959
G1 X136.382 Y99.793 E0.11021
G1 X136.481 Y100.05 E0.01374
G1 X137.002 Y101.565 E0.07993
G1 X137.071 Y101.787 E0.0116
G1 X137.485 Y103.302 E0.07835
G1 X137.559 Y103.634 E0.01697
G1 X138.088 Y106.674 E0.15395
G1 X138.13 Y107.005 E0.01665
G1 X138.25 Y108.512 E0.07542
G1 X138.261 Y108.789 E0.01383
G1 X138.267 Y111.099 E0.11525
G1 X138.252 Y111.434 E0.01673
G1 X138.053 Y113.621 E0.10956
G1 X137.998 Y114 E0.01911
G1 X137.389 Y117.051 E0.15522
G1 X137.309 Y117.376 E0.0167
G1 X136.877 Y118.823 E0.07534
G1 X136.764 Y119.144 E0.01698
G1 X135.593 Y122.037 E0.15571
G1 X135.397 Y122.446 E0.02263
G1 X133.872 Y125.168 E0.15566
G1 X133.627 Y125.546 E0.02247
G1 X131.818 Y127.996 E0.15194
G1 X131.589 Y128.276 E0.01805
G1 X130.283 Y129.717 E0.09702
G1 X130.031 Y129.968 E0.01774
G1 X127.857 Y131.935 E0.14627
G1 X127.607 Y132.142 E0.01619
G1 X126.386 Y133.061 E0.07624
G1 X126.103 Y133.254 E0.01709
G1 X123.441 Y134.887 E0.15581
G1 X123.045 Y135.097 E0.02236
G1 X120.265 Y136.357 E0.15228
G1 X119.895 Y136.501 E0.01981
G1 X117.648 Y137.234 E0.11792
G1 X117.264 Y137.336 E0.01982
G1 X114.219 Y137.968 E0.15515
G1 X113.881 Y138.021 E0.01707
G1 X112.311 Y138.194 E0.0788
G1 X112.083 Y138.212 E0.01141
G1 X110.526 Y138.284 E0.07776
G1 X110.188 Y138.284 E0.01686
G1 X107.119 Y138.137 E0.15329
G1 X106.675 Y138.088 E0.02229
G1 X103.636 Y137.56 E0.15389
G1 X103.301 Y137.485 E0.01713
G1 X101.785 Y137.07 E0.07842
G1 X101.46 Y136.964 E0.01705
G1 X98.51 Y135.846 E0.15739
G1 X98.098 Y135.66 E0.02255
G1 X95.429 Y134.243 E0.15076
G1 X95.142 Y134.073 E0.01664
G1 X93.805 Y133.196 E0.07977
G1 X93.528 Y132.994 E0.0171
G1 X91.149 Y131.086 E0.15215
G1 X90.818 Y130.785 E0.02232
G1 X88.642 Y128.543 E0.15587
G1 X88.346 Y128.197 E0.02272
G1 X86.478 Y125.708 E0.15526
G1 X86.228 Y125.326 E0.02278
G1 X84.67 Y122.586 E0.15725
G1 X84.494 Y122.235 E0.01959
G1 X83.618 Y120.207 E0.11021
G1 X83.518 Y119.949 E0.0138
G1 X82.997 Y118.433 E0.07998
G1 X82.929 Y118.213 E0.01149
G1 X82.515 Y116.699 E0.07831
G1 X82.441 Y116.366 E0.01702
G1 X81.912 Y113.325 E0.15399
G1 X81.863 Y112.88 E0.02234
G1 X81.716 Y109.813 E0.15319
G1 X81.723 Y109.36 E0.0226
G1 X81.968 Y106.233 E0.15648
G1 X82.032 Y105.782 E0.02273
G1 X82.664 Y102.737 E0.15515
G1 X82.747 Y102.414 E0.01664
G1 X83.183 Y100.992 E0.0742
G1 X83.296 Y100.677 E0.0167
G1 X84.47 Y97.823 E0.15396
G1 X84.67 Y97.414 E0.02271
G1 X86.228 Y94.674 E0.15725
G1 X86.478 Y94.292 E0.02278
G1 X88.346 Y91.803 E0.15526
G1 X88.641 Y91.457 E0.02268
G1 X90.816 Y89.215 E0.15584
G0 X91.103 Y89.494
G1 X91.399 Y89.225 E0.01995
G1 X93.778 Y87.318 E0.15211
G1 X94.106 Y87.087 E0.02001
G1 X96.768 Y85.454 E0.15581
G1 X97.12 Y85.267 E0.01989
G1 X99.9 Y84.007 E0.15228
G1 X100.229 Y83.88 E0.01759
G1 X102.476 Y83.147 E0.11792
G1 X102.818 Y83.056 E0.01766
G1 X105.863 Y82.424 E0.15515
G1 X106.163 Y82.376 E0.01516
G1 X107.733 Y82.203 E0.0788
G1 X107.935 Y82.187 E0.01011
G1 X109.492 Y82.115 E0.07776
G1 X109.793 Y82.116 E0.01502
G1 X112.862 Y82.263 E0.15329
G1 X113.257 Y82.306 E0.01982
G1 X116.296 Y82.834 E0.15389
G1 X116.593 Y82.901 E0.01519
G1 X118.109 Y83.316 E0.07842
G1 X118.398 Y83.41 E0.01516
G1 X121.348 Y84.528 E0.15739
G1 X121.715 Y84.694 E0.0201
G1 X124.384 Y86.111 E0.15076
G1 X124.638 Y86.261 E0.01472
G1 X125.975 Y87.138 E0.07977
G1 X126.222 Y87.318 E0.01525
G1 X128.601 Y89.226 E0.15215
G1 X128.895 Y89.493 E0.01981
G1 X131.071 Y91.735 E0.15587
G1 X131.334 Y92.043 E0.02021
G1 X133.202 Y94.532 E0.15526
G1 X133.425 Y94.871 E0.02024
G1 X134.983 Y97.611 E0.15725
G1 X135.139 Y97.924 E0.01745
G1 X136.015 Y99.952 E0.11021
G1 X136.103 Y100.18 E0.01219
G1 X136.624 Y101.695 E0.07993
G1 X136.685 Y101.892 E0.01029
G1 X137.099 Y103.407 E0.07835
G1 X137.165 Y103.702 E0.01508
G1 X137.694 Y106.742 E0.15395
G1 X137.731 Y107.037 E0.01483
G1 X137.851 Y108.544 E0.07542
G1 X137.861 Y108.79 E0.01228
G1 X137.867 Y111.1 E0.11525
G1 X137.854 Y111.398 E0.01488
G1 X137.655 Y113.585 E0.10956
G1 X137.606 Y113.921 E0.01694
G1 X136.997 Y116.972 E0.15522
G1 X136.925 Y117.261 E0.01486
G1 X136.493 Y118.708 E0.07534
G1 X136.393 Y118.994 E0.01512
G1 X135.222 Y121.887 E0.15571
G1 X135.048 Y122.25 E0.02008
G1 X133.523 Y124.972 E0.15566
G1 X133.305 Y125.309 E0.02002
G1 X131.496 Y127.759 E0.15194
G1 X131.293 Y128.007 E0.01599
G1 X129.987 Y129.448 E0.09702
G1 X129.763 Y129.672 E0.0158
G1 X127.589 Y131.639 E0.14627
G1 X127.366 Y131.823 E0.01442
G1 X126.145 Y132.742 E0.07624
G1 X125.894 Y132.913 E0.01515
G1 X123.232 Y134.546 E0.15581
G1 X122.88 Y134.733 E0.01989
G1 X120.1 Y135.993 E0.15228
G1 X119.771 Y136.12 E0.01759
G1 X117.524 Y136.853 E0.11792
G1 X117.182 Y136.944 E0.01766
G1 X114.137 Y137.576 E0.15515
G1 X113.837 Y137.624 E0.01516
G1 X112.267 Y137.797 E0.0788
G1 X112.065 Y137.813 E0.01011
G1 X110.508 Y137.885 E0.07776
G1 X110.207 Y137.884 E0.01502
G1 X107.138 Y137.737 E0.15329
G1 X106.743 Y137.694 E0.01982
G1 X103.704 Y137.166 E0.15389
G1 X103.407 Y137.099 E0.01519
G1 X101.891 Y136.684 E0.07842
G1 X101.602 Y136.59 E0.01516
G1 X98.652 Y135.472 E0.15739
G1 X98.285 Y135.306 E0.0201
G1 X95.616 Y133.889 E0.15076
G1 X95.362 Y133.739 E0.01472
G1 X94.025 Y132.862 E0.07977
G1 X93.778 Y132.682 E0.01525
G1 X91.399 Y130.774 E0.15215
G1 X91.105 Y130.507 E0.01981
G1 X88.929 Y128.265 E0.15587
G1 X88.666 Y127.957 E0.02021
G1 X86.798 Y125.468 E0.15526
G1 X86.575 Y125.129 E0.02024
G1 X85.017 Y122.389 E0.15725
G1 X84.861 Y122.076 E0.01745
G1 X83.985 Y120.048 E0.11021
G1 X83.897 Y119.819 E0.01224
G1 X83.376 Y118.303 E0.07998
G1 X83.315 Y118.107 E0.01024
G1 X82.901 Y116.593 E0.07831
G1 X82.835 Y116.297 E0.01513
G1 X82.306 Y113.256 E0.15399
G1 X82.263 Y112.861 E0.01982
G1 X82.116 Y109.794 E0.15319
G1 X82.122 Y109.391 E0.02011
G1 X82.367 Y106.264 E0.15648
G1 X82.424 Y105.864 E0.02016
G1 X83.056 Y102.819 E0.15515
G1 X83.13 Y102.531 E0.01484
G1 X83.566 Y101.109 E0.0742
G1 X83.666 Y100.83 E0.01479
G1 X84.84 Y97.976 E0.15396
G1 X85.017 Y97.611 E0.02024
G1 X86.575 Y94.871 E0.15725
G1 X86.798 Y94.532 E0.02024
G1 X88.666 Y92.043 E0.15526
G1 X88.928 Y91.736 E0.02014
G1 X91.103 Y89.494 E0.15584
G1 F600 E-2.5
G1 F300 Z1.3
G0 F2100 X98.628 Y96.378 Z1.3
;TYPE:WALL-INNER
G1 F300 Z0.3
G1 F600 E2.5
G1 F2100 X98.617 Y96.264 E0.00571
G1 X98.613 Y96.133 E0.00654
G1 X98.608 Y95.992 E0.00704
G1 X98.609 Y95.827 E0.00823
G1 X98.611 Y95.673 E0.00768
G1 X98.619 Y95.524 E0.00744
G1 X98.625 Y95.435 E0.00445
G1 X98.639 Y95.33 E0.00528
G1 X98.646 Y95.286 E0.00222
G1 X98.666 Y95.215 E0.00368
G1 X98.682 Y95.162 E0.00276
G1 X98.704 Y95.161 E0.0011
G1 X98.729 Y95.233 E0.00102
G1 X98.736 Y95.267
G1 X98.752 Y95.346 E0.00172
G1 X98.759 Y95.423 E0.00071
G1 X98.769 Y95.533 E0.0023
G1 X98.773 Y95.667 E0.00238
G1 X98.779 Y95.828 E0.00344
G1 X98.777 Y95.994 E0.00352
G1 X98.775 Y96.127 E0.00263
G1 X98.767 Y96.273 E0.00307
G1 X98.761 Y96.366 E0.00131
G1 X98.748 Y96.466 E0.00183
G1 X98.741 Y96.516 E0.00252
G1 X98.719 Y96.592 E0.00395
G1 X98.704 Y96.64 E0.00251
G1 X98.681 Y96.638 E0.00115
G1 X98.659 Y96.575 E0.00052
G1 X98.651 Y96.535
G1 X98.634 Y96.451 E0.00177
G1 X98.628 Y96.378 E0.00066
G0 X98.728 Y96.369
G0 X98.705 Y95.26
G0 X98.784 Y94.766
;TYPE:WALL-OUTER
G1 X98.863 Y94.787 E0.00408
G1 X98.942 Y94.828 E0.00444
G1 X98.99 Y94.871 E0.00322
G1 X99.064 Y94.979 E0.00653
G1 X99.115 Y95.123 E0.00762
G1 X99.148 Y95.291 E0.00854
G1 X99.169 Y95.519 E0.01142
G1 X99.179 Y95.814 E0.01473
G1 X99.175 Y96.133 E0.01592
G1 X99.159 Y96.405 E0.01359
G1 X99.132 Y96.604 E0.01002
G1 X99.073 Y96.804 E0.0104
G1 X99.016 Y96.899 E0.00553
G1 X98.926 Y96.986 E0.00625
G1 X98.847 Y97.021 E0.00431
G1 X98.767 Y97.038 E0.00408
G1 X98.67 Y97.041 E0.00484
G1 X98.575 Y97.03 E0.00477
G1 X98.505 Y97.008 E0.00366
G1 X98.445 Y96.975 E0.00342
G1 X98.396 Y96.931 E0.00329
G1 X98.32 Y96.819 E0.00675
G1 X98.273 Y96.683 E0.00718
G1 X98.238 Y96.508 E0.0089
G1 X98.217 Y96.281 E0.01137
G1 X98.208 Y95.988 E0.01462
G1 X98.211 Y95.669 E0.01592
G1 X98.227 Y95.394 E0.01374
G1 X98.254 Y95.198 E0.00987
G1 X98.314 Y94.995 E0.01056
G1 X98.371 Y94.901 E0.00548
G1 X98.42 Y94.848 E0.0036
G1 X98.475 Y94.809 E0.00336
G1 X98.54 Y94.781 E0.00353
G1 X98.619 Y94.764 E0.00403
G1 X98.722 Y94.76 E0.00514
G1 X98.784 Y94.766 E0.00311
G0 X98.863 Y94.787
G0 X98.942 Y94.828
G0 X98.964 Y94.848
G1 F600 E-2.5
G1 F300 Z1.3
G0 F2100 X109.629 Y95.58 Z1.3
G1 F300 Z0.3
G1 F600 E2.5
G1 F2100 X109.609 Y95.506 E0.00382
G1 X109.912 Y95.506 E0.00987
G1 X109.893 Y95.579
G1 X109.761 Y96.086 E0.02614
G1 X109.629 Y95.58 E0.00913
G0 X109.609 Y95.506
G0 X109.733 Y95.506
G1 F600 E-2.5
G1 F300 Z1.3
G0 F2100 X121.32 Y95.58 Z1.3
G1 F300 Z0.3
G1 F600 E2.5
G1 F2100 X121.3 Y95.506 E0.00382
G1 X121.603 Y95.506 E0.00987
G1 X121.584 Y95.579
G1 X121.451 Y96.086 E0.02615
G1 X121.32 Y95.58 E0.00912
G0 X121.3 Y95.506
G0 X121.424 Y95.506
G1 F600 E-2.5
G1 F300 Z1.3
G0 F2100 X112.915 Y107.113 Z1.3
;TYPE:WALL-INNER
G1 F300 Z0.3
G1 F600 E2.5
G1 F2100 X112.904 Y107.113 E0.00055
G1 X110.261 Y107.113 E0.13186
G1 X110.032 Y108.004 E0.0459
G1 X109.4 Y108.004 E0.03153
G1 X109.164 Y107.113 E0.04599
G1 X105.069 Y107.112 E0.2043
G1 X104.965 Y107.112 E0.00519
G1 X104.902 Y107.112 E0.00314
G1 X104.844 Y107.111 E0.00289
G1 X104.844 Y107.145 E0.00016
G1 X104.844 Y107.195 E0.00249
G1 X104.844 Y107.312 E0.00584
G1 X104.844 Y109.22 E0.09519
G1 X103.28 Y109.22 E0.07803
G1 X103.131 Y109.22 E0.00743
G1 X103.048 Y109.22 E0.00414
G1 X103.048 Y109.513 E0.01084
G1 X103.048 Y110.055 E0.02704
G1 X103.048 Y110.178 E0.00614
G1 X103.048 Y111.352 E0.05857
G1 X102.811 Y111.352 E0.01182
G1 X102.811 Y113.641 E0.1142
G1 X102.813 Y113.641 E0.0001
G1 X104.415 Y113.641 E0.07992
G1 X104.637 Y113.641 E0.01108
G1 X104.875 Y113.641 E0.01187
G1 X105.129 Y113.641 E0.01267
G1 X105.396 Y113.641 E0.01332
G1 X105.672 Y113.641 E0.01377
G1 X105.949 Y113.641 E0.01382
G1 X106.216 Y113.641 E0.01332
G1 X106.47 Y113.641 E0.01267
G1 X106.707 Y113.641 E0.01182
G1 X107.226 Y113.641 E0.02589
G1 X107.406 Y113.641 E0.00898
G1 X107.406 Y109.929 E0.18519
G1 X108.582 Y113.641 E0.19426
G1 X109.238 Y113.641 E0.03273
G1 X110.041 Y113.641 E0.04006
G1 X110.131 Y113.641 E0.00449
G1 X110.36 Y113.641 E0.01142
G1 X110.626 Y113.641 E0.01327
G1 X110.846 Y113.641 E0.01098
G1 X110.872 Y113.558 E0.00434
G1 X110.885 Y113.516 E0.00219
G1 X111.45 Y111.736 E0.09317
G1 X111.84 Y110.505 E0.06442
G1 X111.84 Y111.796 E0.03259
G1 X111.84 Y111.797 E0.00005
G1 X111.84 Y113.536 E0.08676
G1 X111.84 Y113.641 E0.00524
G1 X111.896 Y113.641 E0.00279
G1 X112.052 Y113.641 E0.00778
G1 X112.227 Y113.641 E0.00873
G1 X114.402 Y113.641 E0.10851
G1 X114.404 Y109.565 E0.20335
G1 X114.409 Y109.525 E0.00201
G1 X114.423 Y109.433 E0.00464
G1 X114.43 Y109.386 E0.00237
G1 X114.433 Y109.376 E0.00052
G1 X114.454 Y109.323 E0.00284
G1 X114.515 Y109.311 E0.0031
G1 X114.643 Y109.322 E0.00641
G1 X114.666 Y109.379 E0.00185
G1 X114.684 Y109.471 E0.0031
G1 X114.69 Y109.538 E0.00208
G1 X114.693 Y109.565 E0.0005
G1 X114.695 Y113.641 E0.14768
G1 X115.618 Y113.641 E0.04605
G1 X116.844 Y113.641 E0.06117
G1 X116.845 Y113.641 E0.00005
G1 X117.089 Y113.641 E0.01217
G1 X117.04 Y113.881 E0.00749
G1 X116.973 Y114.206 E0.01656
G1 X116.815 Y114.754 E0.02845
G1 X116.608 Y115.303 E0.02927
G1 X116.362 Y115.826 E0.02883
G1 X116.08 Y116.322 E0.02847
G1 X116.017 Y116.415 E0.0056
G1 X115.78 Y116.767 E0.02117
G1 X115.761 Y116.796 E0.00173
G1 X115.661 Y116.923 E0.00806
G1 X115.639 Y116.95 E0.00174
G1 X115.647 Y116.913
G1 X115.655 Y116.788 E0.00045
G1 X115.663 Y116.689 E0.0027
G1 X115.663 Y116.264 E0.01462
G1 X115.663 Y115.918 E0.01726
G1 X115.361 Y115.918 E0.01507
G1 X115.36 Y115.918 E0.00005
G1 X114.924 Y115.918 E0.02175
G1 X115.209 Y115.588 E0.01187
G1 X115.618 Y115.115 E0.0312
G1 X115.618 Y113.714 E0.0699
G1 X114.695 Y113.714 E0.0084
G1 X114.402 Y113.714 E0.01073
G1 X112.227 Y113.714 E0.0198
G1 X112.227 Y113.772
G1 X112.227 Y113.842 E0.00113
G1 X112.227 Y113.951 E0.00387
G1 X112.121 Y113.885 E0.00184
G1 X112.052 Y113.842 E0.00145
G1 X111.896 Y113.772 E0.00385
G1 X111.811 Y113.748 E0.0019
G1 X111.632 Y113.697 E0.00592
G1 X111.528 Y113.684 E0.00523
G1 X111.356 Y113.661 E0.00866
G1 X111.234 Y113.658 E0.00609
G1 X111.189 Y113.657 E0.0021
G1 X110.907 Y113.673 E0.01006
G1 X110.855 Y113.683 E0.00019
G1 X110.626 Y113.731 E0.00224
G1 X110.36 Y113.833 E0.00545
G1 X110.131 Y113.975 E0.00934
G1 X110.063 Y114.033 E0.00411
G1 X110.008 Y114.079 E0.00358
G1 X109.907 Y114.185 E0.0073
G1 X109.799 Y114.325 E0.00882
G1 X109.706 Y114.479 E0.00898
G1 X109.637 Y114.623 E0.00797
G1 X109.629 Y114.64 E0.00094
G1 X109.567 Y114.808 E0.00893
G1 X109.519 Y114.982 E0.00901
G1 X109.483 Y115.162 E0.00916
G1 X109.455 Y115.355 E0.00973
G1 X109.428 Y115.743 E0.0194
G1 X109.428 Y115.874 E0.00654
G1 X109.238 Y115.958 E0.01036
G1 X109.238 Y115.874
G1 X109.238 Y115.743 E0.0022
G1 X109.238 Y115.355 E0.00985
G1 X109.238 Y115.162 E0.00555
G1 X109.238 Y114.982 E0.0059
G1 X109.238 Y114.808 E0.0066
G1 X109.238 Y114.64 E0.00753
G1 X109.238 Y114.621 E0.00094
G1 X109.238 Y113.712 E0.04535
G1 X108.582 Y113.712 E0.00581
G1 X107.406 Y113.712 E0.05566
G1 X107.226 Y113.712 E0.00159
G1 X107.226 Y114.053 E0.01451
G1 X107.226 Y114.24 E0.00933
G1 X107.226 Y114.4 E0.00798
G1 X107.115 Y114.24 E0.00243
G1 X106.926 Y114.053 E0.00817
G1 X106.707 Y113.903 E0.01187
G1 X106.47 Y113.79 E0.00718
G1 X106.216 Y113.712 E0.00395
G1 X105.949 Y113.667 E0.00175
G1 X105.672 Y113.652 E0.00064
G1 X105.396 Y113.667 E0.00064
G1 X105.129 Y113.712 E0.00175
G1 X104.875 Y113.79 E0.00395
G1 X104.637 Y113.903 E0.0072
G1 X104.454 Y114.028 E0.00923
G1 X104.418 Y114.053 E0.00219
G1 X104.229 Y114.24 E0.01326
G1 X104.076 Y114.461 E0.01341
G1 X103.965 Y114.704 E0.01333
G1 X103.898 Y114.968 E0.01359
G1 X103.878 Y115.233 E0.01326
G1 X103.888 Y115.434 E0.01004
G1 X103.922 Y115.623 E0.00958
G1 X103.977 Y115.803 E0.00939
G1 X104.057 Y115.973 E0.00937
G1 X104.143 Y116.108 E0.00799
G1 X104.067 Y116.275 E0.00915
G1 X104.016 Y116.432 E0.00824
G1 X104.003 Y116.5 E0.00345
G1 X103.986 Y116.599 E0.00501
G1 X103.975 Y116.778 E0.00895
G1 X103.976 Y116.792 E0.0007
G1 X103.996 Y117.025 E0.01167
G1 X104.035 Y117.177 E0.00783
G1 X103.946 Y117.065 E0.00041
G1 X103.818 Y116.904 E0.00313
G1 X103.745 Y116.812 E0.00211
G1 X103.722 Y116.778 E0.00022
G1 X103.666 Y116.695 E0.00452
G1 X103.415 Y116.322 E0.02243
G1 X103.128 Y115.817 E0.02898
G1 X102.887 Y115.303 E0.02832
G1 X102.68 Y114.754 E0.02927
G1 X102.522 Y114.206 E0.02845
G1 X102.423 Y113.722 E0.02465
G1 X102.423 Y113.721 E0.00005
G1 X102.402 Y113.621 E0.0051
G1 X102.328 Y113.015 E0.03046
