; generated by Slic3r 1.2.9 on 2018-11-05 at 14:16:32

; external perimeters extrusion width = 0.40mm
; perimeters extrusion width = 0.67mm
; infill extrusion width = 0.67mm
; solid infill extrusion width = 0.67mm
; top infill extrusion width = 0.67mm

M107
M190 S55 ; set bed temperature
M104 S200 ; set temperature
G28 ; home all axes
G1 Z5 F5000 ; lift nozzle

G12 P1 S1 T3 ; clean printer w/zig zags
M109 S200 ; wait for temperature to be reached
G21 ; set units to millimeters
G90 ; use absolute coordinates
M82 ; use absolute distances for extrusion
G92 E0
G1 Z0.200 F7800.000
G1 E-4.00000 F600.00000
G92 E0
G1 X78.857 Y97.569 F7800.000
G1 E4.00000 F600.00000
G1 X79.715 Y96.934 E4.03168 F1800.000
G1 X80.730 Y96.282 E4.06749
G1 X81.622 Y95.784 E4.09785
G1 X82.765 Y95.231 E4.13553
G1 X84.088 Y94.691 E4.17797
G1 X85.372 Y94.253 E4.21824
G1 X86.626 Y93.894 E4.25697
G1 X87.846 Y93.600 E4.29424
G1 X89.032 Y93.359 E4.33016
G1 X90.331 Y93.139 E4.36929
G1 X92.278 Y92.882 E4.42760
G1 X94.135 Y92.706 E4.48297
G1 X95.966 Y92.587 E4.53747
G1 X97.772 Y92.516 E4.59112
G1 X99.922 Y92.481 E4.65497
G1 X101.177 Y92.482 E4.69225
G1 X103.647 Y92.521 E4.76557 F1800.000
G1 X106.095 Y92.603 E4.83830
G1 X108.524 Y92.722 E4.91051
G1 X110.528 Y92.844 E4.97014
G1 X112.472 Y92.979 E5.02799
G1 X116.346 Y93.293 E5.14340
G1 X120.167 Y93.652 E5.25734
G1 X124.012 Y94.055 E5.37213
G1 X127.847 Y94.493 E5.48672
G1 X131.697 Y94.966 E5.60189
G1 X135.524 Y95.467 E5.71649
G1 X141.630 Y96.322 E5.89956
G1 X142.406 Y96.484 E5.92311
G1 X142.708 Y96.570 E5.93242
G1 X144.055 Y97.160 E5.97607
G1 X144.862 Y97.709 E6.00507
G1 X145.804 Y98.611 E6.04379
G1 X145.942 Y98.773 E6.05010
G1 X146.488 Y99.531 E6.07784
G1 X147.006 Y100.580 E6.11260
G1 X147.086 Y100.791 E6.11930
G1 X147.462 Y102.374 E6.16760
G1 X147.481 Y102.550 E6.17286
G1 X147.516 Y103.200 E6.19217
G1 X147.518 Y104.367 E6.22684
G1 X147.516 Y116.800 E6.59598
G1 X147.481 Y117.449 E6.61527
G1 X147.462 Y117.626 E6.62057
G1 X147.085 Y119.212 E6.66898
G1 X147.017 Y119.392 E6.67468
G1 X146.481 Y120.479 E6.71067
G1 X145.799 Y121.395 E6.74458
G1 X144.852 Y122.299 E6.78345
G1 X144.048 Y122.844 E6.81228
G1 X142.549 Y123.476 E6.86057
G1 X141.627 Y123.678 E6.88861
G1 X138.681 Y124.098 E6.97695
G1 X133.548 Y124.796 E7.13078
G1 X126.976 Y125.609 E7.32740
G1 X120.383 Y126.326 E7.52431
G1 X115.618 Y126.770 E7.66638
G1 X110.584 Y127.152 E7.81628
G1 X108.038 Y127.305 E7.89202
G1 X105.468 Y127.423 E7.96839
G1 X102.875 Y127.497 E8.04543
G1 X100.329 Y127.520 E8.12100
G1 X97.678 Y127.481 E8.19975
G1 X96.393 Y127.433 E8.23792
G1 X94.970 Y127.354 E8.28022
G1 X93.780 Y127.264 E8.31567
G1 X92.460 Y127.137 E8.35503
G1 X91.081 Y126.970 E8.39630
G1 X89.712 Y126.762 E8.43741
G1 X88.320 Y126.501 E8.47944
G1 X86.902 Y126.177 E8.52265
G1 X85.793 Y125.874 E8.55678
G1 X84.677 Y125.519 E8.59154
G1 X83.541 Y125.097 E8.62752
G1 X82.365 Y124.586 E8.66559
G1 X81.570 Y124.189 E8.69198
G1 X80.559 Y123.615 E8.72648
G1 X79.726 Y123.074 E8.75598
G1 X78.749 Y122.344 E8.79220
G1 X77.973 Y121.676 E8.82259
G1 X77.229 Y120.940 E8.85366
G1 X76.576 Y120.200 E8.88296
G1 X75.930 Y119.358 E8.91450
G1 X75.369 Y118.511 E8.94464
G1 X74.849 Y117.589 E8.97607
G1 X74.371 Y116.575 E9.00937
G1 X73.977 Y115.557 E9.04178
G1 X73.618 Y114.390 E9.07803
G1 X73.389 Y113.423 E9.10753
G1 X73.190 Y112.278 E9.14203
G1 X73.085 Y111.390 E9.16858
G1 X73.012 Y110.287 E9.20139
G1 X73.025 Y109.394 E9.22791
G1 X73.122 Y108.257 E9.26182
G1 X73.327 Y106.895 E9.30270
G1 X73.557 Y105.846 E9.33458
G1 X73.901 Y104.665 E9.37111
G1 X74.270 Y103.665 E9.40276
G1 X74.721 Y102.665 E9.43532
G1 X75.255 Y101.679 E9.46862
G1 X75.894 Y100.691 E9.50355
G1 X76.447 Y99.957 E9.53083
G1 X77.205 Y99.086 E9.56513
G1 X78.015 Y98.287 E9.59891
G1 X78.811 Y97.607 E9.62998
G1 E5.62998 F600.00000
G92 E0
G1 X98.637 Y116.212 F7800.000
G1 E4.00000 F600.00000
G1 X98.637 Y120.223 E4.11911 F1800.000
G1 X96.680 Y120.167 E4.17722
G1 X94.331 Y120.014 E4.24713
G1 X93.177 Y119.902 E4.28155
G1 X92.007 Y119.758 E4.31654
G1 X92.019 Y119.557 E4.32252
G1 X92.179 Y119.557 E4.32727
G1 X92.702 Y119.313 E4.34439
G1 X92.989 Y118.978 E4.35747
G1 X93.155 Y118.586 E4.37013
G1 X93.163 Y117.323 E4.40763
G1 X93.886 Y117.035 E4.43074
G1 X94.668 Y117.853 E4.46434
G1 X95.187 Y118.075 E4.48108
G1 X95.784 Y118.033 E4.49885
G1 X96.206 Y117.774 E4.51355
G1 X98.478 Y115.462 E4.60981
G1 X98.512 Y115.368 E4.61277
G1 X98.671 Y115.378 E4.61751
G1 X98.706 Y115.528 E4.62207
G1 X98.897 Y115.920 E4.63503
G1 X99.036 Y116.085 E4.64144
G1 X98.694 Y116.194 E4.65209
G1 X98.637 Y114.265 F7800.000
G1 X97.668 Y113.229 E4.69421 F1800.000
G1 X97.879 Y112.781 E4.70890
G1 X97.956 Y112.571 E4.71554
G1 X98.637 Y112.558 E4.73577
G1 X98.637 Y114.205 E4.78466
G1 E0.78466 F600.00000
G92 E0
G1 X87.794 Y117.329 F7800.000
G1 E4.00000 F600.00000
G1 X87.799 Y118.558 E4.03649 F1800.000
G1 X87.951 Y118.919 E4.04813
G1 X87.389 Y118.758 E4.06546
G1 X86.589 Y118.481 E4.09062
G1 X85.679 Y118.112 E4.11978
G1 X86.298 Y117.860 E4.13962
G1 X87.130 Y117.050 E4.17411
G1 X87.738 Y117.309 E4.19371
G1 E0.19371 F600.00000
G92 E0
G1 X83.823 Y117.057 F7800.000
G1 E4.00000 F600.00000
G1 X83.584 Y116.894 E4.00858 F1800.000
G1 X82.928 Y116.353 E4.03383
G1 X82.348 Y115.764 E4.05839
G1 X82.082 Y115.445 E4.07072
G1 X81.707 Y114.928 E4.08967
G1 X81.386 Y114.394 E4.10819
G1 X81.022 Y113.632 E4.13326
G1 X80.737 Y112.840 E4.15823
G1 X80.525 Y112.021 E4.18337
G1 X80.378 Y111.177 E4.20881
G1 X80.330 Y110.771 E4.22094
G1 X80.279 Y110.002 E4.24382
G1 X80.341 Y109.132 E4.26972
G1 X80.483 Y108.187 E4.29810
G1 X80.699 Y107.287 E4.32559
G1 X80.980 Y106.471 E4.35120
G1 X81.346 Y105.680 E4.37708
G1 X81.794 Y104.942 E4.40271
G1 X82.248 Y104.352 E4.42481
G1 X82.397 Y104.422 E4.42967
G1 X82.321 Y104.856 E4.44274
G1 X82.351 Y105.184 E4.45254
G1 X82.500 Y105.571 E4.46486
G1 X83.363 Y106.477 E4.50200
G1 X83.256 Y106.707 E4.50952
G1 X83.084 Y107.180 E4.52446
G1 X81.795 Y107.184 E4.56276
G1 X81.280 Y107.400 E4.57932
G1 X80.896 Y107.849 E4.59687
G1 X80.779 Y108.326 E4.61144
G1 X80.784 Y111.524 E4.70639
G1 X81.028 Y112.047 E4.72351
G1 X81.363 Y112.333 E4.73659
G1 X81.756 Y112.499 E4.74926
G1 X83.079 Y112.508 E4.78856
G1 X83.259 Y112.998 E4.80406
G1 X83.365 Y113.217 E4.81129
G1 X82.507 Y114.116 E4.84819
G1 X82.307 Y114.629 E4.86454
G1 X82.363 Y115.213 E4.88194
G1 X82.622 Y115.620 E4.89628
G1 X83.947 Y116.904 E4.95108
G1 X83.861 Y117.010 E4.95514
G1 E0.95514 F600.00000
G92 E0
G1 X87.133 Y102.662 F7800.000
G1 E4.00000 F600.00000
G1 X86.327 Y101.876 E4.03344 F1800.000
G1 X85.999 Y101.743 E4.04393
G1 X87.139 Y101.324 E4.07998
G1 X87.805 Y101.118 E4.10069
G1 X87.796 Y102.379 E4.13813
G1 X87.557 Y102.466 E4.14568
G1 X87.188 Y102.637 E4.15776
G1 E0.15776 F600.00000
G92 E0
G1 X98.994 Y116.473 F7800.000
G1 E4.00000 F600.00000
G1 X98.994 Y120.586 E4.12212 F1800.000
G1 X97.833 Y120.568 E4.15660
G1 X96.662 Y120.524 E4.19138
G1 X94.302 Y120.370 E4.26161
G1 X93.138 Y120.257 E4.29633
G1 X91.974 Y120.114 E4.33115
G1 X90.818 Y119.937 E4.36588
G1 X89.672 Y119.720 E4.40049
G1 X88.537 Y119.459 E4.43507
G1 X87.282 Y119.099 E4.47385
G1 X86.463 Y118.815 E4.49958
G1 X85.654 Y118.487 E4.52551
G1 X84.860 Y118.107 E4.55162
G1 X84.095 Y117.673 E4.57774
G1 X83.370 Y117.180 E4.60378
G1 X82.690 Y116.620 E4.62993
G1 X82.080 Y116.000 E4.65576
G1 X81.800 Y115.664 E4.66874
G1 X81.409 Y115.125 E4.68851
G1 X81.071 Y114.563 E4.70799
G1 X80.692 Y113.770 E4.73410
G1 X80.396 Y112.946 E4.76010
G1 X80.175 Y112.096 E4.78615
G1 X80.024 Y111.228 E4.81231
G1 X79.974 Y110.804 E4.82500
G1 X79.921 Y110.001 E4.84888
G1 X79.986 Y109.093 E4.87593
G1 X80.132 Y108.118 E4.90518
G1 X80.356 Y107.187 E4.93364
G1 X80.648 Y106.337 E4.96030
G1 X81.029 Y105.515 E4.98722
G1 X81.337 Y104.985 E5.00543
G1 X81.882 Y104.232 E5.03303
G1 X82.506 Y103.554 E5.06036
G1 X82.958 Y103.146 E5.07846
G1 X83.700 Y102.585 E5.10606
G1 X84.489 Y102.094 E5.13367
G1 X85.201 Y101.722 E5.15750
G1 X86.105 Y101.324 E5.18684
G1 X87.024 Y100.985 E5.21592
G1 X87.958 Y100.696 E5.24495
G1 X88.394 Y100.583 E5.25833
G1 X88.477 Y100.721 E5.26310
G1 X88.283 Y100.930 E5.27156
G1 X88.161 Y101.220 E5.28090
G1 X88.151 Y102.629 E5.32272
G1 X87.694 Y102.796 E5.33719
G1 X87.060 Y103.089 E5.35791
G1 X86.128 Y102.181 E5.39657
G1 X85.762 Y102.032 E5.40829
G1 X85.349 Y102.061 E5.42059
G1 X85.041 Y102.242 E5.43117
G1 X82.857 Y104.359 E5.52149
G1 X82.726 Y104.610 E5.52990
G1 X82.681 Y104.870 E5.53773
G1 X82.702 Y105.102 E5.54465
G1 X82.808 Y105.377 E5.55339
G1 X83.790 Y106.407 E5.59565
G1 X83.586 Y106.843 E5.60993
G1 X83.335 Y107.536 E5.63181
G1 X81.867 Y107.541 E5.67540
G1 X81.497 Y107.697 E5.68733
G1 X81.222 Y108.017 E5.69984
G1 X81.137 Y108.369 E5.71060
G1 X81.141 Y111.444 E5.80192
G1 X81.319 Y111.826 E5.81441
G1 X81.553 Y112.026 E5.82355
G1 X81.829 Y112.143 E5.83245
G1 X83.329 Y112.153 E5.87699
G1 X83.588 Y112.858 E5.89932
G1 X83.795 Y113.285 E5.91339
G1 X82.814 Y114.311 E5.95553
G1 X82.671 Y114.679 E5.96727
G1 X82.710 Y115.093 E5.97962
G1 X82.900 Y115.393 E5.99016
G1 X85.130 Y117.553 E6.08232
G1 X85.522 Y117.691 E6.09465
G1 X85.825 Y117.667 E6.10369
G1 X86.099 Y117.555 E6.11247
G1 X87.056 Y116.624 E6.15213
G1 X87.703 Y116.918 E6.17322
G1 X88.151 Y117.076 E6.18732
G1 X88.155 Y118.485 E6.22916
G1 X88.309 Y118.850 E6.24091
G1 X88.624 Y119.120 E6.25324
G1 X88.970 Y119.204 E6.26381
G1 X92.100 Y119.200 E6.35674
G1 X92.481 Y119.022 E6.36923
G1 X92.681 Y118.788 E6.37837
G1 X92.798 Y118.512 E6.38727
G1 X92.808 Y117.076 E6.42989
G1 X93.622 Y116.765 E6.45577
G1 X93.967 Y116.602 E6.46709
G1 X94.876 Y117.554 E6.50617
G1 X95.248 Y117.713 E6.51818
G1 X95.671 Y117.683 E6.53079
G1 X95.981 Y117.493 E6.54159
G1 X98.169 Y115.266 E6.63426
G1 X98.311 Y114.880 E6.64649
G1 X98.291 Y114.579 E6.65544
G1 X98.186 Y114.306 E6.66414
G1 X97.242 Y113.295 E6.70519
G1 X97.549 Y112.644 E6.72659
G1 X97.704 Y112.219 E6.74001
G1 X98.994 Y112.194 E6.77832
G1 X98.994 Y113.837 E6.82709
G1 X99.189 Y113.837 E6.83288
G1 X99.056 Y114.106 E6.84181
G1 X98.982 Y114.378 E6.85018
G1 X98.947 Y114.765 E6.86172
G1 X98.966 Y115.068 E6.87071
G1 X99.045 Y115.407 E6.88106
G1 X99.199 Y115.724 E6.89152
G1 X99.429 Y115.997 E6.90211
G1 X99.759 Y116.230 E6.91412
G1 X99.051 Y116.455 E6.93618
G1 E2.93618 F600.00000
G92 E0
G1 X98.637 Y107.139 F7800.000
G1 E4.00000 F600.00000
G1 X97.960 Y107.121 E4.02010 F1800.000
G1 X97.876 Y106.900 E4.02714
G1 X97.669 Y106.473 E4.04122
G1 X98.637 Y105.450 E4.08304
G1 X98.637 Y107.079 E4.13140
G1 E0.13140 F600.00000
G92 E0
G1 X98.481 Y104.309 F7800.000
G1 E4.00000 F600.00000
G1 X98.368 Y104.125 E4.00641 F1800.000
G1 X96.154 Y101.896 E4.09969
G1 X95.854 Y101.731 E4.10984
G1 X95.485 Y101.647 E4.12110
G1 X95.091 Y101.681 E4.13283
G1 X94.689 Y101.853 E4.14582
G1 X93.887 Y102.677 E4.17997
G1 X93.165 Y102.393 E4.20302
G1 X93.160 Y101.175 E4.23918
G1 X92.944 Y100.661 E4.25574
G1 X92.397 Y100.192 E4.27715
G1 X93.940 Y100.021 E4.32327
G1 X95.564 Y99.894 E4.37161
G1 X97.194 Y99.810 E4.42008
G1 X98.637 Y99.770 E4.46294
G1 X98.637 Y102.242 E4.53633
G1 X98.679 Y102.242 E4.53760
G1 X98.608 Y102.524 E4.54624
G1 X98.598 Y103.109 E4.56363
G1 X98.676 Y103.477 E4.57479
G1 X98.637 Y103.477 E4.57597
G1 X98.637 Y104.265 E4.59937
G1 X98.538 Y104.293 E4.60240
G1 X98.994 Y103.834 F7800.000
G1 X98.994 Y107.505 E4.71139 F1800.000
G1 X97.712 Y107.472 E4.74947
G1 X97.547 Y107.042 E4.76316
G1 X97.241 Y106.407 E4.78410
G1 X98.163 Y105.431 E4.82396
G1 X98.306 Y105.064 E4.83567
G1 X98.271 Y104.650 E4.84798
G1 X98.085 Y104.347 E4.85854
G1 X95.937 Y102.184 E4.94905
G1 X95.726 Y102.068 E4.95620
G1 X95.460 Y102.007 E4.96430
G1 X95.179 Y102.032 E4.97268
G1 X94.895 Y102.153 E4.98185
G1 X93.968 Y103.106 E5.02131
G1 X93.536 Y102.911 E5.03538
G1 X92.809 Y102.642 E5.05842
G1 X92.804 Y101.248 E5.09981
G1 X92.648 Y100.877 E5.11175
G1 X92.328 Y100.603 E5.12426
G1 X91.976 Y100.517 E5.13500
G1 X89.493 Y100.517 E5.20873
G1 X89.472 Y100.326 E5.21444
G1 X91.312 Y99.983 E5.27002
G1 X92.282 Y99.845 E5.29911
G1 X93.907 Y99.666 E5.34764
G1 X95.540 Y99.538 E5.39629
G1 X97.180 Y99.454 E5.44503
G1 X98.994 Y99.406 E5.49891
G1 X98.994 Y101.885 E5.57251
G1 X99.228 Y101.885 E5.57945
G1 X99.070 Y102.156 E5.58878
G1 X98.964 Y102.571 E5.60149
G1 X98.956 Y103.075 E5.61644
G1 X99.044 Y103.487 E5.62897
G1 X99.212 Y103.834 E5.64041
G1 X99.054 Y103.834 E5.64512
G1 X99.351 Y104.191 F7800.000
G1 X99.351 Y105.284 E5.67755 F1800.000
G1 X100.395 Y105.284 E5.70855
G1 X100.395 Y105.522 E5.71563
G1 X99.351 Y105.522 E5.74663
G1 X99.351 Y107.993 E5.82000
G1 X99.056 Y107.864 E5.82957
G1 X97.558 Y107.826 E5.87406
G1 X97.483 Y107.802 E5.87640
G1 X97.439 Y107.761 E5.87817
G1 X97.219 Y107.183 E5.89652
G1 X96.855 Y106.430 E5.92135
G1 X96.844 Y106.323 E5.92455
G1 X97.856 Y105.236 E5.96863
G1 X97.943 Y105.011 E5.97581
G1 X97.922 Y104.765 E5.98315
G1 X97.803 Y104.569 E5.98996
G1 X95.720 Y102.472 E6.07771
G1 X95.598 Y102.405 E6.08184
G1 X95.436 Y102.368 E6.08679
G1 X95.266 Y102.383 E6.09183
G1 X95.101 Y102.454 E6.09718
G1 X94.111 Y103.471 E6.13933
G1 X94.045 Y103.503 E6.14151
G1 X93.977 Y103.501 E6.14352
G1 X93.401 Y103.242 E6.16228
G1 X92.548 Y102.926 E6.18929
G1 X92.480 Y102.872 E6.19186
G1 X92.452 Y102.794 E6.19434
G1 X92.447 Y101.320 E6.23809
G1 X92.351 Y101.094 E6.24539
G1 X92.160 Y100.930 E6.25287
G1 X91.933 Y100.874 E6.25980
G1 X89.034 Y100.874 E6.34589
G1 X88.878 Y100.900 E6.35058
G1 X88.724 Y100.979 E6.35571
G1 X88.588 Y101.127 E6.36167
G1 X88.518 Y101.293 E6.36705
G1 X88.507 Y102.782 E6.41124
G1 X88.483 Y102.858 E6.41362
G1 X88.441 Y102.903 E6.41545
G1 X87.830 Y103.127 E6.43476
G1 X87.078 Y103.474 E6.45937
G1 X86.970 Y103.485 E6.46258
G1 X85.929 Y102.485 E6.50544
G1 X85.704 Y102.394 E6.51262
G1 X85.457 Y102.412 E6.51997
G1 X85.259 Y102.528 E6.52680
G1 X83.147 Y104.576 E6.61414
G1 X83.068 Y104.727 E6.61920
G1 X83.041 Y104.884 E6.62396
G1 X83.053 Y105.020 E6.62799
G1 X83.116 Y105.182 E6.63315
G1 X84.150 Y106.268 E6.67768
G1 X84.187 Y106.339 E6.68006
G1 X84.188 Y106.399 E6.68184
G1 X83.916 Y106.980 E6.70087
G1 X83.621 Y107.797 E6.72667
G1 X83.551 Y107.881 E6.72991
G1 X83.490 Y107.893 E6.73174
G1 X81.940 Y107.898 E6.77778
G1 X81.713 Y107.993 E6.78509
G1 X81.549 Y108.184 E6.79256
G1 X81.494 Y108.411 E6.79950
G1 X81.498 Y111.365 E6.88720
G1 X81.610 Y111.605 E6.89505
G1 X81.743 Y111.719 E6.90025
G1 X81.903 Y111.786 E6.90539
G1 X83.488 Y111.796 E6.95247
G1 X83.554 Y111.816 E6.95450
G1 X83.603 Y111.862 E6.95649
G1 X83.917 Y112.719 E6.98360
G1 X84.185 Y113.272 E7.00185
G1 X84.191 Y113.348 E7.00413
G1 X84.155 Y113.424 E7.00662
G1 X83.121 Y114.506 E7.05107
G1 X83.034 Y114.730 E7.05819
G1 X83.058 Y114.974 E7.06548
G1 X83.179 Y115.166 E7.07222
G1 X85.323 Y117.242 E7.16082
G1 X85.569 Y117.329 E7.16857
G1 X85.741 Y117.315 E7.17371
G1 X85.900 Y117.251 E7.17879
G1 X86.918 Y116.260 E7.22098
G1 X86.978 Y116.228 E7.22298
G1 X87.044 Y116.226 E7.22497
G1 X87.836 Y116.587 E7.25081
G1 X88.422 Y116.793 E7.26923
G1 X88.480 Y116.843 E7.27152
G1 X88.507 Y116.921 E7.27398
G1 X88.512 Y118.412 E7.31825
G1 X88.605 Y118.634 E7.32538
G1 X88.792 Y118.793 E7.33267
G1 X89.013 Y118.847 E7.33942
G1 X92.020 Y118.843 E7.42872
G1 X92.260 Y118.731 E7.43658
G1 X92.374 Y118.598 E7.44178
G1 X92.442 Y118.438 E7.44692
G1 X92.452 Y116.920 E7.49199
G1 X92.474 Y116.848 E7.49423
G1 X92.513 Y116.807 E7.49592
G1 X93.482 Y116.436 E7.52671
G1 X93.951 Y116.215 E7.54213
G1 X94.061 Y116.201 E7.54542
G1 X94.110 Y116.235 E7.54717
G1 X95.084 Y117.254 E7.58903
G1 X95.309 Y117.351 E7.59631
G1 X95.559 Y117.333 E7.60375
G1 X95.757 Y117.211 E7.61066
G1 X97.860 Y115.071 E7.69975
G1 X97.950 Y114.828 E7.70745
G1 X97.938 Y114.657 E7.71254
G1 X97.878 Y114.499 E7.71757
G1 X96.876 Y113.427 E7.76112
G1 X96.845 Y113.368 E7.76311
G1 X96.844 Y113.301 E7.76508
G1 X97.219 Y112.506 E7.79117
G1 X97.422 Y111.949 E7.80877
G1 X97.471 Y111.892 E7.81102
G1 X97.549 Y111.865 E7.81347
G1 X99.003 Y111.837 E7.85666
G1 X99.351 Y111.716 E7.86758
G1 X99.351 Y112.030 E7.87688
G1 X99.760 Y112.219 E7.89026
G1 X99.723 Y112.387 E7.89537
G1 X99.351 Y112.387 E7.90640
G1 X99.351 Y113.480 E7.93884
G1 X100.058 Y113.480 E7.95983
G1 X99.644 Y113.817 E7.97570
G1 X99.520 Y113.974 E7.98163
G1 X99.392 Y114.233 E7.99022
