; generated by Slic3r 1.2.9 on 2018-11-05 at 16:25:25

; external perimeters extrusion width = 0.40mm
; perimeters extrusion width = 0.67mm
; infill extrusion width = 0.67mm
; solid infill extrusion width = 0.67mm
; top infill extrusion width = 0.67mm

M107
M190 S55 ; set bed temperature
M104 S200 ; set temperature
G28 ; home all axes
G1 Z5 F5000 ; lift nozzle

G12 P1 S1 T3 ; clean printer w/zig zags
M109 S200 ; wait for temperature to be reached
G21 ; set units to millimeters
G90 ; use absolute coordinates
M82 ; use absolute distances for extrusion
G92 E0
G1 Z0.100 F7800.000
G1 E-4.00000 F600.00000
G92 E0
G1 X100.491 Y100.590 F7800.000
G1 E4.00000 F600.00000
G1 X100.967 Y100.132 E4.00490 F1800.000
G1 X101.573 Y99.609 E4.01085
G1 X102.074 Y99.222 E4.01554
G1 X102.526 Y98.904 E4.01964
G1 X103.073 Y98.555 E4.02446
G1 X103.778 Y98.157 E4.03047
G1 X104.363 Y97.867 E4.03532
G1 X104.859 Y97.648 E4.03934
G1 X105.458 Y97.417 E4.04411
G1 X106.227 Y97.165 E4.05012
G1 X106.855 Y96.996 E4.05494
G1 X107.377 Y96.881 E4.05891
G1 X108.023 Y96.769 E4.06377
G1 X108.811 Y96.675 E4.06967
G1 X109.477 Y96.632 E4.07462
G1 X110.135 Y96.623 E4.07950
G1 X111.190 Y96.675 E4.08734 F1800.000
G1 X111.977 Y96.769 E4.09323
G1 X112.506 Y96.859 E4.09721
G1 X113.138 Y96.994 E4.10201
G1 X113.647 Y97.128 E4.10592
G1 X114.657 Y97.458 E4.11381
G1 X115.638 Y97.867 E4.12169
G1 X116.114 Y98.100 E4.12563
G1 X116.688 Y98.414 E4.13048
G1 X117.366 Y98.832 E4.13639
G1 X117.801 Y99.132 E4.14032
G1 X118.640 Y99.786 E4.14821
G1 X119.126 Y100.217 E4.15303
G1 X119.510 Y100.590 E4.15701
G1 X120.209 Y101.354 E4.16470
G1 X120.871 Y102.203 E4.17269
G1 X121.179 Y102.650 E4.17671
G1 X121.516 Y103.192 E4.18145
G1 X121.776 Y103.652 E4.18537
G1 X122.136 Y104.371 E4.19134
G1 X122.544 Y105.350 E4.19921
G1 X122.753 Y105.959 E4.20400
G1 X122.904 Y106.471 E4.20796
G1 X123.144 Y107.503 E4.21582
G1 X123.300 Y108.555 E4.22372
G1 X123.348 Y109.091 E4.22771
G1 X123.375 Y109.725 E4.23242
G1 X123.375 Y110.259 E4.23639
G1 X123.336 Y111.060 E4.24234
G1 X123.210 Y112.112 E4.25020
G1 X123.089 Y112.767 E4.25515
G1 X122.972 Y113.274 E4.25901
G1 X122.674 Y114.283 E4.26682
G1 X122.298 Y115.267 E4.27464
G1 X122.076 Y115.757 E4.27863
G1 X121.782 Y116.336 E4.28345
G1 X121.441 Y116.932 E4.28855
G1 X121.093 Y117.478 E4.29336
G1 X120.466 Y118.332 E4.30122
G1 X120.042 Y118.839 E4.30613
G1 X119.696 Y119.218 E4.30993
G1 X118.932 Y119.960 E4.31784
G1 X118.116 Y120.635 E4.32570
G1 X117.694 Y120.945 E4.32959
G1 X117.147 Y121.309 E4.33446
G1 X116.692 Y121.584 E4.33841
G1 X115.988 Y121.963 E4.34435
G1 X115.022 Y122.400 E4.35221
G1 X114.419 Y122.628 E4.35700
G1 X113.915 Y122.793 E4.36093
G1 X112.877 Y123.066 E4.36890
G1 X111.841 Y123.251 E4.37672
G1 X111.337 Y123.311 E4.38048
G1 X110.673 Y123.361 E4.38543
G1 X109.604 Y123.372 E4.39336
G1 X109.081 Y123.346 E4.39725
G1 X108.284 Y123.267 E4.40320
G1 X107.625 Y123.166 E4.40814
G1 X107.131 Y123.067 E4.41188
G1 X106.091 Y122.795 E4.41986
G1 X105.094 Y122.447 E4.42770
G1 X104.600 Y122.240 E4.43168
G1 X104.012 Y121.963 E4.43650
G1 X103.308 Y121.584 E4.44244
G1 X102.853 Y121.309 E4.44638
G1 X101.978 Y120.706 E4.45427
G1 X101.466 Y120.303 E4.45911
G1 X101.071 Y119.963 E4.46297
G1 X100.309 Y119.223 E4.47086
G1 X99.616 Y118.435 E4.47865
G1 X99.279 Y118.003 E4.48272
G1 X98.907 Y117.478 E4.48749
G1 X98.477 Y116.797 E4.49347
G1 X98.218 Y116.336 E4.49739
G1 X97.754 Y115.385 E4.50525
G1 X97.501 Y114.771 E4.51018
G1 X97.326 Y114.283 E4.51402
G1 X97.028 Y113.275 E4.52183
G1 X96.809 Y112.232 E4.52974
G1 X96.729 Y111.695 E4.53377
G1 X96.664 Y111.060 E4.53851
G1 X96.622 Y110.003 E4.54636
G1 X96.646 Y109.202 E4.55231
G1 X96.687 Y108.679 E4.55620
G1 X96.766 Y108.035 E4.56102
G1 X96.857 Y107.502 E4.56504
G1 X97.094 Y106.477 E4.57284
G1 X97.410 Y105.476 E4.58063
G1 X97.602 Y104.972 E4.58464
G1 X97.864 Y104.371 E4.58950
G1 X98.224 Y103.652 E4.59548
G1 X98.484 Y103.192 E4.59940
G1 X99.063 Y102.296 E4.60732
G1 X99.445 Y101.779 E4.61209
G1 X99.790 Y101.355 E4.61614
G1 X100.449 Y100.633 E4.62340
G1 E0.62340 F600.00000
G92 E0
G1 X114.039 Y113.758 F7800.000
G1 E4.00000 F600.00000
G1 X113.955 Y113.407 E4.00267 F1800.000
G1 X113.525 Y112.965 E4.00726
G1 X113.664 Y112.633 E4.00993
G1 X114.279 Y112.631 E4.01449
G1 X114.533 Y112.524 E4.01654
G1 X114.723 Y112.302 E4.01871
G1 X114.781 Y112.067 E4.02051
G1 X114.778 Y110.441 E4.03257
G1 X114.640 Y110.145 E4.03500
G1 X114.330 Y109.953 E4.03771
G1 X113.661 Y109.949 E4.04267
G1 X113.517 Y109.587 E4.04556
G1 X113.926 Y109.196 E4.04976
G1 X114.037 Y108.937 E4.05185
G1 X114.016 Y108.638 E4.05407
G1 X113.887 Y108.427 E4.05591
G1 X112.731 Y107.291 E4.06794
G1 X112.678 Y107.272 E4.06836
G1 X112.685 Y107.190 E4.06897
G1 X112.783 Y107.173 E4.06971
G1 X113.048 Y107.029 E4.07194
G1 X113.106 Y107.212 E4.07337
G1 X115.824 Y107.212 E4.09354
G1 X115.824 Y106.770 E4.09683
G1 X115.907 Y106.751 E4.09746
G1 X116.246 Y107.463 E4.10332
G1 X116.504 Y108.224 E4.10928
G1 X116.625 Y108.745 E4.11325
G1 X116.703 Y109.268 E4.11717
G1 X116.742 Y110.075 E4.12317
G1 X116.716 Y110.598 E4.12706
G1 X116.598 Y111.390 E4.13300
G1 X116.468 Y111.905 E4.13694
G1 X116.195 Y112.660 E4.14291
G1 X115.839 Y113.372 E4.14882
G1 X115.555 Y113.821 E4.15276
G1 X115.063 Y114.452 E4.15870
G1 X114.694 Y114.841 E4.16268
G1 X114.301 Y115.193 E4.16659
G1 X113.655 Y115.666 E4.17254
G1 X113.197 Y115.936 E4.17648
G1 X112.471 Y116.273 E4.18242
G1 X111.970 Y116.448 E4.18636
G1 X111.189 Y116.636 E4.19232
G1 X110.399 Y116.730 E4.19823
G1 X109.867 Y116.741 E4.20218
G1 X109.070 Y116.678 E4.20812
G1 X108.547 Y116.584 E4.21206
G1 X107.777 Y116.365 E4.21800
G1 X107.286 Y116.172 E4.22192
G1 X106.804 Y115.937 E4.22590
G1 X106.127 Y115.519 E4.23181
G1 X105.498 Y115.019 E4.23777
G1 X105.119 Y114.651 E4.24169
G1 X104.765 Y114.249 E4.24567
G1 X104.298 Y113.599 E4.25161
G1 X104.033 Y113.138 E4.25555
G1 X103.703 Y112.409 E4.26149
G1 X103.532 Y111.906 E4.26544
G1 X103.352 Y111.127 E4.27138
G1 X103.284 Y110.599 E4.27532
G1 X103.261 Y109.800 E4.28126
G1 X103.297 Y109.270 E4.28520
G1 X103.431 Y108.485 E4.29111
G1 X103.657 Y107.714 E4.29708
G1 X103.856 Y107.222 E4.30102
G1 X104.094 Y106.770 E4.30481
G1 X104.176 Y106.790 E4.30543
G1 X104.176 Y107.212 E4.30856
G1 X106.121 Y107.212 E4.32300
G1 X106.121 Y107.188 E4.32318
G1 X106.429 Y107.241 E4.32550
G1 X106.738 Y107.188 E4.32783
G1 X106.738 Y107.212 E4.32801
G1 X107.132 Y107.212 E4.33093
G1 X107.154 Y107.290 E4.33154
G1 X107.062 Y107.346 E4.33234
G1 X105.921 Y108.479 E4.34427
G1 X105.808 Y108.796 E4.34677
G1 X105.899 Y109.160 E4.34955
G1 X106.338 Y109.587 E4.35410
G1 X106.196 Y109.948 E4.35698
G1 X105.587 Y109.950 E4.36150
G1 X105.330 Y110.058 E4.36357
G1 X105.138 Y110.283 E4.36577
G1 X105.080 Y110.521 E4.36759
G1 X105.082 Y112.135 E4.37957
G1 X105.222 Y112.434 E4.38202
G1 X105.536 Y112.628 E4.38476
G1 X106.189 Y112.632 E4.38961
G1 X106.331 Y112.964 E4.39228
G1 X105.938 Y113.367 E4.39646
G1 X105.835 Y113.620 E4.39849
G1 X105.855 Y113.910 E4.40065
G1 X105.978 Y114.118 E4.40244
G1 X107.090 Y115.266 E4.41431
G1 X107.398 Y115.384 E4.41675
G1 X107.759 Y115.306 E4.41949
G1 X108.238 Y114.849 E4.42441
G1 X108.590 Y114.988 E4.42721
G1 X108.592 Y115.633 E4.43200
G1 X108.700 Y115.890 E4.43407
G1 X108.924 Y116.082 E4.43627
G1 X109.163 Y116.141 E4.43809
G1 X110.762 Y116.138 E4.44996
G1 X111.057 Y116.000 E4.45238
G1 X111.249 Y115.690 E4.45509
G1 X111.254 Y114.991 E4.46027
G1 X111.608 Y114.848 E4.46311
G1 X112.057 Y115.277 E4.46773
G1 X112.314 Y115.377 E4.46977
G1 X112.606 Y115.349 E4.47195
G1 X112.810 Y115.219 E4.47374
G1 X113.931 Y114.061 E4.48570
G1 X114.019 Y113.814 E4.48765
G1 E0.48765 F600.00000
G92 E0
G1 X111.614 Y107.696 F7800.000
G1 E4.00000 F600.00000
G1 X111.285 Y107.552 E4.00266 F1800.000
G1 X111.279 Y107.212 E4.00519
G1 X112.132 Y107.212 E4.01153
G1 X111.658 Y107.655 E4.01635
G1 E0.01635 F600.00000
G92 E0
G1 X108.560 Y107.550 F7800.000
G1 E4.00000 F600.00000
G1 X108.236 Y107.696 E4.00264 F1800.000
G1 X107.725 Y107.212 E4.00786
G1 X108.569 Y107.212 E4.01413
G1 X108.562 Y107.490 E4.01620
G1 X107.325 Y107.395 F7800.000
G1 X107.173 Y107.488 E4.01752 F1800.000
G1 X106.076 Y108.578 E4.02900
G1 X105.994 Y108.805 E4.03080
G1 X106.060 Y109.067 E4.03280
G1 X106.553 Y109.546 E4.03790
G1 X106.321 Y110.126 E4.04254
G1 X105.624 Y110.128 E4.04771
G1 X105.438 Y110.206 E4.04920
G1 X105.301 Y110.366 E4.05077
G1 X105.258 Y110.542 E4.05211
G1 X105.261 Y112.095 E4.06364
G1 X105.361 Y112.310 E4.06540
G1 X105.587 Y112.449 E4.06737
G1 X106.314 Y112.455 E4.07277
G1 X106.544 Y113.000 E4.07716
G1 X106.090 Y113.466 E4.08199
G1 X106.016 Y113.649 E4.08346
G1 X106.030 Y113.856 E4.08500
G1 X106.121 Y114.010 E4.08632
G1 X107.191 Y115.114 E4.09773
G1 X107.412 Y115.198 E4.09949
G1 X107.672 Y115.142 E4.10146
G1 X108.203 Y114.635 E4.10691
G1 X108.421 Y114.737 E4.10870
G1 X108.768 Y114.863 E4.11143
G1 X108.770 Y115.597 E4.11688
G1 X108.848 Y115.782 E4.11838
G1 X109.008 Y115.919 E4.11994
G1 X109.184 Y115.962 E4.12128
G1 X110.722 Y115.960 E4.13270
G1 X110.934 Y115.861 E4.13443
G1 X111.071 Y115.638 E4.13637
G1 X111.076 Y114.866 E4.14211
G1 X111.429 Y114.736 E4.14490
G1 X111.642 Y114.633 E4.14666
G1 X112.155 Y115.123 E4.15193
G1 X112.339 Y115.195 E4.15339
G1 X112.547 Y115.175 E4.15494
G1 X112.696 Y115.080 E4.15625
G1 X113.776 Y113.965 E4.16777
G1 X113.853 Y113.748 E4.16948
G1 X113.793 Y113.497 E4.17140
G1 X113.312 Y113.002 E4.17653
G1 X113.459 Y112.679 E4.17916
G1 X113.538 Y112.455 E4.18092
G1 X114.242 Y112.453 E4.18615
G1 X114.425 Y112.376 E4.18762
G1 X114.560 Y112.218 E4.18916
G1 X114.602 Y112.045 E4.19049
G1 X114.600 Y110.480 E4.20210
G1 X114.501 Y110.269 E4.20383
G1 X114.278 Y110.131 E4.20578
G1 X113.538 Y110.126 E4.21127
G1 X113.301 Y109.547 E4.21592
G1 X113.777 Y109.092 E4.22080
G1 X113.856 Y108.906 E4.22230
G1 X113.841 Y108.694 E4.22388
G1 X113.746 Y108.539 E4.22523
G1 X112.633 Y107.446 E4.23681
G1 X112.418 Y107.367 E4.23851
G1 X112.169 Y107.422 E4.24041
G1 X111.647 Y107.909 E4.24570
G1 X111.322 Y107.756 E4.24838
G1 X111.109 Y107.678 E4.25006
G1 X111.097 Y107.033 E4.25485
G1 X111.918 Y107.033 E4.26094
G1 X111.918 Y106.925 E4.26174
G1 X112.055 Y107.007 E4.26293
G1 X112.388 Y107.060 E4.26543
G1 X112.724 Y107.002 E4.26796
G1 X112.891 Y106.911 E4.26938
G1 X113.022 Y106.789 E4.27070
G1 X113.113 Y106.645 E4.27197
G1 X113.236 Y107.033 E4.27499
G1 X115.645 Y107.033 E4.29287
G1 X115.645 Y106.132 E4.29956
G1 X115.720 Y106.108 E4.30014
G1 X116.061 Y106.659 E4.30496
G1 X116.412 Y107.396 E4.31101
G1 X116.676 Y108.175 E4.31712
G1 X116.801 Y108.712 E4.32121
G1 X116.881 Y109.250 E4.32525
G1 X116.921 Y110.075 E4.33138
G1 X116.894 Y110.615 E4.33539
G1 X116.773 Y111.425 E4.34147
G1 X116.639 Y111.957 E4.34554
G1 X116.359 Y112.731 E4.35165
G1 X115.994 Y113.460 E4.35770
G1 X115.701 Y113.924 E4.36178
G1 X115.198 Y114.569 E4.36785
G1 X114.818 Y114.969 E4.37194
G1 X114.413 Y115.332 E4.37598
G1 X113.753 Y115.815 E4.38205
G1 X113.281 Y116.094 E4.38613
G1 X112.538 Y116.439 E4.39220
G1 X112.020 Y116.620 E4.39627
G1 X111.221 Y116.812 E4.40238
G1 X110.411 Y116.909 E4.40843
G1 X109.862 Y116.920 E4.41251
G1 X109.047 Y116.855 E4.41858
G1 X108.506 Y116.758 E4.42265
G1 X107.720 Y116.535 E4.42872
G1 X107.214 Y116.336 E4.43276
G1 X106.718 Y116.093 E4.43686
G1 X106.024 Y115.665 E4.44291
G1 X105.380 Y115.153 E4.44902
G1 X104.989 Y114.774 E4.45306
G1 X104.625 Y114.360 E4.45715
G1 X104.148 Y113.696 E4.46322
G1 X103.874 Y113.220 E4.46730
G1 X103.537 Y112.475 E4.47337
G1 X103.360 Y111.955 E4.47744
G1 X103.176 Y111.158 E4.48351
G1 X103.106 Y110.613 E4.48759
G1 X103.082 Y109.796 E4.49366
G1 X103.120 Y109.248 E4.49773
G1 X103.256 Y108.445 E4.50378
G1 X103.488 Y107.655 E4.50989
G1 X103.694 Y107.147 E4.51397
G1 X104.075 Y106.423 E4.52004
G1 X104.278 Y106.115 E4.52277
G1 X104.354 Y106.138 E4.52336
G1 X104.354 Y107.033 E4.53001
G1 X105.942 Y107.033 E4.54180
G1 X105.942 Y106.920 E4.54264
G1 X106.091 Y107.002 E4.54390
G1 X106.429 Y107.060 E4.54645
G1 X106.766 Y107.002 E4.54899
G1 X106.917 Y106.919 E4.55026
G1 X106.917 Y107.033 E4.55111
G1 X108.752 Y107.033 E4.56473
G1 X108.736 Y107.674 E4.56949
G1 X108.203 Y107.910 E4.57381
G1 X107.715 Y107.449 E4.57880
G1 X107.531 Y107.377 E4.58026
G1 X107.385 Y107.390 E4.58135
G1 X107.382 Y107.569 F7800.000
G1 X107.284 Y107.629 E4.58220 F1800.000
G1 X106.230 Y108.676 E4.59323
G1 X106.180 Y108.814 E4.59432
G1 X106.221 Y108.974 E4.59555
G1 X106.735 Y109.475 E4.60088
G1 X106.750 Y109.542 E4.60139
G1 X106.621 Y109.830 E4.60373
G1 X106.465 Y110.249 E4.60705
G1 X106.435 Y110.288 E4.60742
G1 X106.389 Y110.304 E4.60778
G1 X105.660 Y110.307 E4.61319
G1 X105.547 Y110.355 E4.61411
G1 X105.465 Y110.450 E4.61504
G1 X105.437 Y110.564 E4.61591
G1 X105.439 Y112.055 E4.62698
G1 X105.500 Y112.186 E4.62805
G1 X105.638 Y112.271 E4.62925
G1 X106.391 Y112.277 E4.63484
G1 X106.451 Y112.310 E4.63535
G1 X106.741 Y113.031 E4.64112
G1 X106.720 Y113.076 E4.64149
G1 X106.242 Y113.566 E4.64657
G1 X106.197 Y113.678 E4.64746
G1 X106.206 Y113.802 E4.64838
G1 X106.264 Y113.901 E4.64924
G1 X107.292 Y114.961 E4.66020
G1 X107.426 Y115.013 E4.66127
G1 X107.585 Y114.978 E4.66247
G1 X108.134 Y114.455 E4.66810
G1 X108.199 Y114.436 E4.66861
G1 X108.929 Y114.745 E4.67449
G1 X108.946 Y114.793 E4.67486
G1 X108.949 Y115.560 E4.68056
G1 X108.996 Y115.674 E4.68147
G1 X109.092 Y115.756 E4.68241
G1 X109.205 Y115.783 E4.68327
G1 X110.682 Y115.781 E4.69423
G1 X110.810 Y115.722 E4.69528
G1 X110.893 Y115.587 E4.69645
G1 X110.898 Y114.786 E4.70240
G1 X110.931 Y114.729 E4.70289
G1 X111.674 Y114.435 E4.70882
G1 X111.712 Y114.453 E4.70913
G1 X112.253 Y114.970 E4.71469
G1 X112.365 Y115.013 E4.71558
G1 X112.487 Y115.001 E4.71649
G1 X112.583 Y114.941 E4.71733
G1 X113.621 Y113.869 E4.72841
G1 X113.667 Y113.738 E4.72944
G1 X113.631 Y113.586 E4.73060
G1 X113.114 Y113.041 E4.73617
G1 X113.113 Y113.008 E4.73642
G1 X113.293 Y112.612 E4.73965
G1 X113.396 Y112.319 E4.74195
G1 X113.460 Y112.277 E4.74253
G1 X114.206 Y112.274 E4.74806
G1 X114.317 Y112.228 E4.74895
G1 X114.396 Y112.134 E4.74986
G1 X114.423 Y112.024 E4.75071
G1 X114.421 Y110.520 E4.76187
G1 X114.362 Y110.393 E4.76291
G1 X114.227 Y110.310 E4.76409
G1 X113.427 Y110.295 E4.77003
G1 X113.403 Y110.273 E4.77027
G1 X113.218 Y109.789 E4.77411
G1 X113.107 Y109.555 E4.77604
G1 X113.123 Y109.470 E4.77668
G1 X113.627 Y108.988 E4.78185
G1 X113.675 Y108.876 E4.78276
G1 X113.666 Y108.751 E4.78369
G1 X113.605 Y108.652 E4.78456
G1 X112.535 Y107.600 E4.79569
G1 X112.406 Y107.553 E4.79671
G1 X112.255 Y107.586 E4.79786
G1 X111.684 Y108.108 E4.80361
G1 X111.650 Y108.108 E4.80385
G1 X111.253 Y107.921 E4.80711
G1 X110.974 Y107.819 E4.80931
G1 X110.932 Y107.756 E4.80988
G1 X110.918 Y107.028 E4.81528
G1 X110.858 Y106.855 E4.81665
G1 X111.015 Y106.855 E4.81781
G1 X111.109 Y106.650 E4.81948
G1 X111.193 Y106.669 E4.82012
G1 X111.193 Y106.855 E4.82150
G1 X111.740 Y106.855 E4.82555
G1 X111.740 Y106.597 E4.82747
G1 X111.815 Y106.574 E4.82805
G1 X111.908 Y106.711 E4.82929
G1 X112.117 Y106.836 E4.83109
G1 X112.387 Y106.879 E4.83312
G1 X112.664 Y106.831 E4.83521
G1 X112.786 Y106.765 E4.83624
G1 X112.883 Y106.674 E4.83723
G1 X112.964 Y106.548 E4.83834
G1 X113.016 Y106.401 E4.83950
G1 X113.045 Y106.122 E4.84157
G1 X113.132 Y106.113 E4.84222
G1 X113.367 Y106.855 E4.84799
G1 X113.865 Y106.855 E4.85169
G1 X114.164 Y105.911 E4.85904
G1 X114.255 Y105.925 E4.85972
G1 X114.255 Y106.855 E4.86662
G1 X114.801 Y106.855 E4.87068
G1 X114.801 Y106.333 E4.87455
G1 X114.921 Y106.333 E4.87543
G1 X114.921 Y106.855 E4.87931
G1 X115.467 Y106.855 E4.88336
G1 X115.467 Y105.484 E4.89354
G1 X115.599 Y105.634 E4.89503
G1 X115.926 Y106.089 E4.89918
G1 X116.219 Y106.575 E4.90339
G1 X116.578 Y107.328 E4.90959
G1 X116.848 Y108.126 E4.91584
G1 X116.976 Y108.679 E4.92005
G1 X117.058 Y109.233 E4.92421
G1 X117.100 Y110.075 E4.93047
G1 X117.072 Y110.633 E4.93462
G1 X116.948 Y111.460 E4.94082
G1 X116.810 Y112.009 E4.94503
G1 X116.524 Y112.801 E4.95128
G1 X116.150 Y113.548 E4.95748
G1 X115.848 Y114.027 E4.96168
G1 X115.334 Y114.686 E4.96788
G1 X114.943 Y115.097 E4.97210
G1 X114.526 Y115.470 E4.97625
G1 X113.851 Y115.965 E4.98246
G1 X113.364 Y116.252 E4.98666
G1 X112.606 Y116.605 E4.99287
