; generated by Slic3r 1.2.9 on 2018-11-05 at 16:11:21

; external perimeters extrusion width = 0.40mm
; perimeters extrusion width = 0.67mm
; infill extrusion width = 0.67mm
; solid infill extrusion width = 0.67mm
; top infill extrusion width = 0.67mm
; support material extrusion width = 0.40mm

M107
M190 S55 ; set bed temperature
M104 S200 ; set temperature
G28 ; home all axes
G1 Z5 F5000 ; lift nozzle

G12 P1 S1 T3 ; clean printer w/zig zags
M109 S200 ; wait for temperature to be reached
G21 ; set units to millimeters
G90 ; use absolute coordinates
M82 ; use absolute distances for extrusion
G92 E0
G1 Z0.200 F7800.000
G1 E-4.00000 F600.00000
G92 E0
G1 X89.350 Y52.108 F7800.000
G1 E4.00000 F600.00000
G1 X89.548 Y51.823 E4.01031 F1800.000
G1 X90.274 Y50.953 E4.04395
G1 X90.521 Y50.706 E4.05431
G1 X91.381 Y49.987 E4.08760
G1 X91.683 Y49.777 E4.09852
G1 X92.597 Y49.250 E4.12985
G1 X92.912 Y49.102 E4.14018
G1 X93.947 Y48.721 E4.17292
G1 X94.342 Y48.616 E4.18507
G1 X95.418 Y48.431 E4.21747
G1 X96.321 Y48.380 E4.24434
G1 X123.723 Y48.480 E5.05794
G1 X124.595 Y48.533 E5.08388 F1800.000
G1 X125.691 Y48.726 E5.11691
G1 X126.035 Y48.818 E5.12749
G1 X127.033 Y49.179 E5.15901
G1 X127.377 Y49.338 E5.17025
G1 X128.326 Y49.883 E5.20273
G1 X128.612 Y50.082 E5.21308
G1 X129.496 Y50.825 E5.24736
G1 X129.741 Y51.072 E5.25769
G1 X130.437 Y51.906 E5.28996
G1 X130.637 Y52.191 E5.30028
G1 X131.177 Y53.123 E5.33227
G1 X131.332 Y53.452 E5.34307
G1 X131.708 Y54.479 E5.37554
G1 X131.806 Y54.840 E5.38667
G1 X131.999 Y55.937 E5.41974
G1 X132.029 Y56.284 E5.43007
G1 X132.029 Y57.381 E5.46265
G1 X131.997 Y57.751 E5.47366
G1 X124.523 Y140.189 E7.93141
G1 X124.312 Y142.193 E7.99121
G1 X124.076 Y144.052 E8.04687
G1 X123.714 Y146.418 E8.11794
G1 X123.403 Y148.190 E8.17135
G1 X123.012 Y150.160 E8.23099
G1 X122.599 Y152.017 E8.28748
G1 X122.118 Y153.984 E8.34760
G1 X121.550 Y156.086 E8.41223
G1 X120.973 Y158.037 E8.47266
G1 X120.387 Y159.870 E8.52977
G1 X119.736 Y161.770 E8.58943
G1 X119.026 Y163.696 E8.65035
G1 X118.224 Y165.725 E8.71513
G1 X117.691 Y166.980 E8.75561
G1 X117.120 Y168.032 E8.79116
G1 X116.745 Y168.564 E8.81048
G1 X116.223 Y169.178 E8.83441
G1 X115.599 Y169.770 E8.85994
G1 X114.676 Y170.453 E8.89405
G1 X113.976 Y170.858 E8.91805
G1 X112.518 Y171.392 E8.96415
G1 X111.626 Y171.542 E8.99103
G1 X109.934 Y171.542 E9.04125
G1 X109.654 Y171.505 E9.04964
G1 X109.038 Y171.391 E9.06825
G1 X107.566 Y170.849 E9.11481
G1 X106.869 Y170.443 E9.13877
G1 X106.006 Y169.807 E9.17061
G1 X105.421 Y169.263 E9.19433
G1 X104.727 Y168.444 E9.22621
G1 X104.495 Y168.111 E9.23826
G1 X104.065 Y167.356 E9.26405
G1 X103.373 Y165.906 E9.31176
G1 X102.585 Y164.135 E9.36929
G1 X101.736 Y162.115 E9.43436
G1 X100.991 Y160.219 E9.49483
G1 X100.326 Y158.417 E9.55189
G1 X99.613 Y156.346 E9.61690
G1 X99.035 Y154.532 E9.67345
G1 X98.461 Y152.588 E9.73363
G1 X97.924 Y150.604 E9.79465
G1 X97.408 Y148.509 E9.85872
G1 X96.976 Y146.553 E9.91819
G1 X96.599 Y144.658 E9.97556
G1 X96.233 Y142.549 E10.03912
G1 X95.933 Y140.552 E10.09908
G1 X95.675 Y138.536 E10.15942
G1 X95.476 Y136.613 E10.21682
G1 X87.970 Y57.261 E12.58341
G1 X87.968 Y56.217 E12.61439
G1 X88.001 Y55.833 E12.62584
G1 X88.191 Y54.749 E12.65850
G1 X88.280 Y54.412 E12.66885
G1 X88.667 Y53.352 E12.70236
G1 X88.821 Y53.023 E12.71315
G1 X89.320 Y52.160 E12.74276
G1 E8.74276 F600.00000
G92 E0
G1 X111.748 Y154.548 F7800.000
G1 E4.00000 F600.00000
G1 X111.748 Y155.536 E4.02935 F1800.000
G1 X111.476 Y155.547 E4.03743
G1 X111.632 Y155.772 E4.04555
G1 X111.769 Y156.129 E4.05691
G1 X111.813 Y156.549 E4.06945
G1 X111.792 Y156.864 E4.07882
G1 X111.727 Y157.142 E4.08728
G1 X111.613 Y157.384 E4.09522
G1 X111.448 Y157.584 E4.10293
G1 X111.231 Y157.736 E4.11079
G1 X110.968 Y157.839 E4.11918
G1 X110.664 Y157.898 E4.12838
G1 X110.323 Y157.916 E4.13851
G1 X107.668 Y157.916 E4.21734
G1 X107.668 Y156.903 E4.24743
G1 X110.190 Y156.903 E4.32232
G1 X110.610 Y156.866 E4.33484
G1 X110.768 Y156.810 E4.33980
G1 X110.875 Y156.703 E4.34431
G1 X110.921 Y156.570 E4.34847
G1 X110.940 Y156.347 E4.35511
G1 X110.924 Y156.177 E4.36020
G1 X110.880 Y156.033 E4.36466
G1 X110.809 Y155.911 E4.36885
G1 X110.708 Y155.805 E4.37320
G1 X110.578 Y155.718 E4.37786
G1 X110.418 Y155.653 E4.38299
G1 X110.225 Y155.612 E4.38884
G1 X109.992 Y155.597 E4.39577
G1 X107.668 Y155.597 E4.46478
G1 X107.668 Y154.587 E4.49476
G1 X111.436 Y154.575 E4.60664
G1 X111.688 Y154.553 E4.61415
G1 X112.148 Y154.536 F7800.000
G1 X111.280 Y153.860 F7800.000
G1 X110.977 Y154.060 E4.62494 F1800.000
G1 X110.612 Y154.198 E4.63651
G1 X110.191 Y154.278 E4.64925
G1 X109.711 Y154.305 E4.66352
G1 X109.234 Y154.277 E4.67770
G1 X108.813 Y154.191 E4.69048
G1 X108.447 Y154.043 E4.70220
G1 X108.141 Y153.830 E4.71324
G1 X107.903 Y153.558 E4.72399
G1 X107.734 Y153.233 E4.73485
G1 X107.636 Y152.863 E4.74624
G1 X107.603 Y152.449 E4.75856
G1 X107.637 Y152.037 E4.77084
G1 X107.740 Y151.668 E4.78221
G1 X107.917 Y151.347 E4.79309
G1 X108.165 Y151.081 E4.80387
G1 X108.475 Y150.877 E4.81489
G1 X108.837 Y150.735 E4.82646
G1 X109.250 Y150.652 E4.83895
G1 X109.689 Y150.626 E4.85203 F1800.000
G1 X110.603 Y150.734 E4.87933
G1 X111.273 Y151.082 E4.90176
G1 X111.683 Y151.673 E4.92313
G1 X111.813 Y152.461 E4.94683
G1 X111.781 Y152.895 E4.95976
G1 X111.684 Y153.271 E4.97129
G1 X111.517 Y153.596 E4.98212
G1 X111.320 Y153.815 E4.99089
G1 X111.333 Y154.220 F7800.000
G1 E0.99089 F600.00000
G92 E0
G1 X107.668 Y150.373 F7800.000
G1 E4.00000 F600.00000
G1 X107.668 Y149.360 E4.03009 F1800.000
G1 X110.190 Y149.360 E4.10498
G1 X110.624 Y149.323 E4.11791
G1 X110.770 Y149.268 E4.12252
G1 X110.874 Y149.156 E4.12708
G1 X110.921 Y149.019 E4.13138
G1 X110.940 Y148.804 E4.13778
G1 X110.925 Y148.638 E4.14274
G1 X110.881 Y148.496 E4.14714
G1 X110.810 Y148.374 E4.15133
G1 X110.710 Y148.266 E4.15573
G1 X110.581 Y148.176 E4.16038
G1 X110.428 Y148.110 E4.16532
G1 X110.247 Y148.069 E4.17083
G1 X110.029 Y148.054 E4.17732
G1 X107.668 Y148.054 E4.24743
G1 X107.668 Y147.044 E4.27743
G1 X107.739 Y147.044 E4.27954
G1 X107.626 Y146.477 E4.29669
G1 X107.603 Y146.130 E4.30703
G1 X107.666 Y145.743 E4.31868
G1 X107.876 Y145.436 E4.32971
G1 X108.213 Y145.259 E4.34103
G1 X108.628 Y145.207 E4.35342
G1 X110.904 Y145.207 E4.42101
G1 X110.904 Y144.783 E4.43360
G1 X111.748 Y144.783 E4.45866
G1 X111.748 Y145.269 E4.47309
G1 X112.580 Y145.449 E4.49837
G1 X112.580 Y146.217 E4.52118
G1 X111.748 Y146.217 E4.54588
G1 X111.748 Y147.044 E4.57042
G1 X113.092 Y147.044 E4.61032
G1 X113.092 Y148.054 E4.64033
G1 X111.539 Y148.054 E4.68645
G1 X111.703 Y148.382 E4.69736
G1 X111.765 Y148.576 E4.70340
G1 X111.801 Y148.786 E4.70971
G1 X111.812 Y149.012 E4.71644
G1 X111.792 Y149.319 E4.72557
G1 X111.728 Y149.594 E4.73397
G1 X111.616 Y149.836 E4.74187
G1 X111.453 Y150.037 E4.74957
G1 X111.237 Y150.191 E4.75744
G1 X110.973 Y150.295 E4.76587
G1 X110.667 Y150.355 E4.77512
G1 X110.323 Y150.373 E4.78535
G1 X107.728 Y150.373 E4.86239
G1 X107.268 Y150.373 F7800.000
G1 X106.954 Y151.087 F7800.000
G1 X107.244 Y151.087 E4.87102 F1800.000
G1 X107.075 Y151.396 E4.88147
G1 X106.931 Y151.910 E4.89733
G1 X106.887 Y152.448 E4.91334
G1 X106.929 Y152.983 E4.92929
G1 X107.064 Y153.493 E4.94496
G1 X107.262 Y153.874 E4.95772
G1 X106.954 Y153.875 E4.96688
G1 X106.954 Y154.788 E4.99397
G1 X106.775 Y154.818 E4.99936
G1 X105.968 Y152.340 E5.07673
G1 X105.438 Y150.542 E5.13240
G1 X104.951 Y148.738 E5.18788
G1 X104.505 Y146.925 E5.24331
G1 X104.240 Y145.717 E5.28003
G1 X105.019 Y145.499 E5.30405
G1 X106.129 Y145.250 E5.33780
G1 X107.266 Y145.063 E5.37202
G1 X106.987 Y145.471 E5.38667
G1 X106.885 Y146.095 E5.40546
G1 X106.916 Y146.571 E5.41963
G1 X106.954 Y146.760 E5.42533
G1 X106.954 Y151.027 E5.55205
G1 E1.55205 F600.00000
G92 E0
G1 X109.658 Y144.493 F7800.000
G1 E4.00000 F600.00000
G1 X109.658 Y140.041 E4.13220 F1800.000
G1 X110.332 Y140.041 E4.15220
G1 X110.332 Y144.069 E4.27181
G1 X110.190 Y144.069 E4.27602
G1 X110.190 Y144.493 E4.28861
G1 X109.718 Y144.493 E4.30262
G1 X109.301 Y144.506 F7800.000
G1 X109.301 Y139.683 E4.44580 F1800.000
G1 X110.689 Y139.683 E4.48700
G1 X110.689 Y144.426 E4.62781
G1 X110.547 Y144.426 E4.63203
G1 X110.547 Y144.850 E4.64462
G1 X108.605 Y144.850 E4.70227
G1 X108.105 Y144.913 E4.71725
G1 X107.631 Y145.161 E4.73312
G1 X107.326 Y145.607 E4.74915
G1 X107.244 Y146.113 E4.76437
G1 X107.271 Y146.524 E4.77662
G1 X107.311 Y146.724 E4.78267
G1 X107.311 Y148.411 E4.83276
G1 X110.195 Y148.423 E4.91841
G1 X110.317 Y148.451 E4.92212
G1 X110.474 Y148.537 E4.92742
G1 X110.552 Y148.640 E4.93125
G1 X110.581 Y148.805 E4.93625
G1 X110.567 Y148.969 E4.94113
G1 X110.175 Y149.003 E4.95281
G1 X107.311 Y149.003 E5.03785
G1 X107.311 Y150.730 E5.08915
G1 X108.004 Y150.730 E5.10972
G1 X107.625 Y151.136 E5.12619
G1 X107.408 Y151.532 E5.13961
G1 X107.284 Y151.973 E5.15323
G1 X107.245 Y152.448 E5.16737
G1 X107.282 Y152.923 E5.18151
G1 X107.399 Y153.363 E5.19504
G1 X107.606 Y153.761 E5.20834
G1 X108.016 Y154.229 E5.22682
G1 X107.311 Y154.231 E5.24774
G1 X107.311 Y155.954 E5.29889
G1 X110.177 Y155.967 E5.38398
G1 X110.409 Y156.035 E5.39118
G1 X110.522 Y156.127 E5.39550
G1 X110.572 Y156.246 E5.39932
G1 X110.568 Y156.511 E5.40720
G1 X110.174 Y156.546 E5.41892
G1 X107.311 Y156.546 E5.50394
G1 X107.311 Y156.864 E5.51341
G1 X107.134 Y156.896 E5.51873
G1 X106.815 Y156.030 E5.54613
G1 X106.199 Y154.243 E5.60227
G1 X105.627 Y152.445 E5.65829
G1 X105.095 Y150.639 E5.71420
G1 X104.606 Y148.827 E5.76992
G1 X104.157 Y147.006 E5.82560
G1 X103.822 Y145.476 E5.87211
G1 X104.932 Y145.152 E5.90644
G1 X106.058 Y144.900 E5.94070
G1 X106.762 Y144.774 E5.96194
G1 X107.431 Y144.679 E5.98199
G1 X109.241 Y144.511 E6.03598
G1 E2.03598 F600.00000
G92 E0
G1 X113.806 Y146.330 F7800.000
G1 E4.00000 F600.00000
G1 X113.294 Y146.330 E4.01520 F1800.000
G1 X113.294 Y145.150 E4.05023
G1 X114.280 Y145.336 E4.08001
G1 X115.655 Y145.686 E4.12214
G1 X116.419 Y145.929 E4.14594
G1 X116.269 Y146.787 E4.17178
G1 X115.907 Y148.612 E4.22703
G1 X115.504 Y150.428 E4.28226
G1 X115.059 Y152.240 E4.33766
G1 X114.572 Y154.042 E4.39308
G1 X114.044 Y155.836 E4.44860
G1 X113.472 Y157.623 E4.50432
G1 X112.862 Y159.399 E4.56008
G1 X112.209 Y161.165 E4.61599
G1 X111.515 Y162.919 E4.67199
G1 X111.039 Y164.042 E4.70821
G1 X110.957 Y164.159 E4.71245
G1 X110.781 Y164.323 E4.71958
G1 X110.583 Y164.131 E4.72778
G1 X110.005 Y162.925 E4.76749
G1 X109.233 Y161.189 E4.82389
G1 X108.497 Y159.441 E4.88019
G1 X108.178 Y158.630 E4.90606
G1 X110.342 Y158.630 E4.97031
G1 X110.751 Y158.608 E4.98247
G1 X111.167 Y158.528 E4.99505
G1 X111.571 Y158.370 E5.00793
G1 X111.938 Y158.113 E5.02121
G1 X112.221 Y157.768 E5.03448
G1 X112.405 Y157.377 E5.04730
G1 X112.500 Y156.970 E5.05972
G1 X112.529 Y156.536 E5.07264
G1 X112.462 Y155.943 E5.09035
G1 X112.462 Y153.768 E5.15493
G1 X112.221 Y153.790 E5.16212
G1 X112.356 Y153.527 E5.17090
G1 X112.489 Y153.011 E5.18670
G1 X112.532 Y152.428 E5.20406
G1 X112.362 Y151.398 E5.23505
G1 X111.836 Y150.641 E5.26242
G1 X111.947 Y150.562 E5.26645
G1 X112.226 Y150.216 E5.27966
G1 X112.407 Y149.828 E5.29237
G1 X112.501 Y149.424 E5.30468
G1 X112.528 Y149.017 E5.31679
G1 X112.515 Y148.768 E5.32419
G1 X113.806 Y148.769 E5.36253
G1 X113.806 Y146.390 E5.43317
G1 X113.449 Y146.687 F7800.000
G1 X112.937 Y146.687 E5.44838 F1800.000
G1 X112.937 Y145.161 E5.49367
G1 X112.105 Y144.981 E5.51895
G1 X112.105 Y144.626 E5.52948
G1 X112.894 Y144.724 E5.55307
G1 X113.641 Y144.844 E5.57556
G1 X114.359 Y144.987 E5.59728
G1 X115.752 Y145.342 E5.63998
G1 X116.822 Y145.694 E5.67341
G1 X116.620 Y146.852 E5.70833
G1 X116.257 Y148.685 E5.76383
G1 X115.851 Y150.509 E5.81930
G1 X115.405 Y152.329 E5.87493
G1 X114.915 Y154.139 E5.93059
G1 X114.385 Y155.940 E5.98636
G1 X113.811 Y157.735 E6.04231
G1 X113.198 Y159.519 E6.09831
G1 X112.543 Y161.293 E6.15446
G1 X111.846 Y163.055 E6.21072
G1 X111.353 Y164.217 E6.24820
G1 X111.227 Y164.395 E6.25465
G1 X111.033 Y164.576 E6.26256
G1 X110.887 Y164.664 E6.26760
G1 X110.780 Y164.679 E6.27083
G1 X110.673 Y164.664 E6.27402
G1 X110.530 Y164.577 E6.27902
G1 X110.331 Y164.392 E6.28707
G1 X110.275 Y164.314 E6.28994
G1 X109.681 Y163.074 E6.33074
G1 X108.905 Y161.331 E6.38741
G1 X108.167 Y159.576 E6.44393
G1 X107.654 Y158.273 E6.48550
G1 X110.333 Y158.273 E6.56502
G1 X110.707 Y158.253 E6.57617
G1 X111.068 Y158.184 E6.58706
G1 X111.401 Y158.053 E6.59769
G1 X111.693 Y157.849 E6.60827
G1 X111.917 Y157.576 E6.61875
G1 X112.066 Y157.259 E6.62914
G1 X112.146 Y156.917 E6.63957
G1 X112.171 Y156.543 E6.65072
G1 X112.119 Y156.046 E6.66556
G1 X112.056 Y155.881 E6.67078
G1 X112.105 Y155.879 E6.67224
G1 X112.105 Y154.158 E6.72334
G1 X111.440 Y154.216 E6.74316
G1 X111.814 Y153.800 E6.75978
G1 X112.020 Y153.399 E6.77316
G1 X112.135 Y152.953 E6.78683
G1 X112.172 Y152.445 E6.80197
G1 X112.022 Y151.536 E6.82932
G1 X111.516 Y150.806 E6.85570
G1 X111.143 Y150.612 E6.86818
G1 X111.409 Y150.507 E6.87665
G1 X111.700 Y150.300 E6.88727
G1 X111.921 Y150.026 E6.89772
G1 X112.067 Y149.711 E6.90802
G1 X112.146 Y149.371 E6.91838
G1 X112.170 Y149.014 E6.92900
G1 X112.156 Y148.746 E6.93698
G1 X112.099 Y148.411 E6.94708
G1 X113.449 Y148.412 E6.98717
G1 X113.449 Y146.747 E7.03661
G1 E3.03661 F600.00000
G92 E0
G1 X111.046 Y144.182 F7800.000
G1 E4.00000 F600.00000
G1 X112.158 Y144.273 E4.03311 F1800.000
G1 X112.944 Y144.370 E4.05664
G1 X113.704 Y144.493 E4.07951
G1 X114.438 Y144.639 E4.10171
G1 X115.850 Y144.998 E4.14497
G1 X116.521 Y145.208 E4.16584
G1 X117.226 Y145.458 E4.18805
G1 X116.971 Y146.917 E4.23205
G1 X116.606 Y148.759 E4.28779
G1 X116.199 Y150.590 E4.34349
G1 X115.750 Y152.418 E4.39937
G1 X115.259 Y154.236 E4.45527
G1 X114.726 Y156.045 E4.51128
G1 X114.150 Y157.848 E4.56747
G1 X113.535 Y159.639 E4.62370
G1 X112.876 Y161.421 E4.68010
G1 X112.176 Y163.190 E4.73660
G1 X111.666 Y164.391 E4.77534
G1 X111.498 Y164.630 E4.78403
G1 X111.249 Y164.863 E4.79413
G1 X111.010 Y165.008 E4.80245
G1 X110.780 Y165.040 E4.80933
G1 X110.551 Y165.008 E4.81621
G1 X110.313 Y164.863 E4.82448
G1 X110.062 Y164.629 E4.83465
G1 X109.966 Y164.497 E4.83950
G1 X109.357 Y163.224 E4.88140
G1 X108.577 Y161.473 E4.93833
G1 X107.836 Y159.711 E4.99508
G1 X107.137 Y157.935 E5.05175
G1 X106.479 Y156.150 E5.10822
G1 X105.860 Y154.355 E5.16460
G1 X105.286 Y152.549 E5.22086
G1 X104.751 Y150.736 E5.27700
G1 X104.260 Y148.916 E5.33296
G1 X103.809 Y147.087 E5.38890
G1 X103.404 Y145.235 E5.44518
G1 X104.032 Y145.034 E5.46476
G1 X104.845 Y144.806 E5.48984
G1 X105.987 Y144.550 E5.52461
G1 X106.706 Y144.421 E5.54627
G1 X107.389 Y144.325 E5.56677
G1 X108.944 Y144.180 E5.61313
G1 X108.944 Y139.326 E5.75725
G1 X111.046 Y139.326 E5.81966
G1 X111.046 Y144.122 E5.96206
G1 X111.024 Y144.582 F7800.000
G1 E1.96206 F600.00000
G92 E0
G1 X110.904 Y146.217 F7800.000
G1 E4.00000 F600.00000
G1 X110.904 Y147.044 E4.02454 F1800.000
G1 X108.577 Y147.044 E4.09363
G1 X108.491 Y146.405 E4.11276
G1 X108.515 Y146.243 E4.11764
G1 X108.780 Y146.217 E4.12554
G1 X110.844 Y146.217 E4.18682
G1 X110.704 Y146.564 F7800.000
G1 E0.18682 F600.00000
G92 E0
G1 X110.533 Y152.206 F7800.000
G1 E4.00000 F600.00000
G1 X110.589 Y152.339 E4.00430 F1800.000
G1 X110.602 Y152.480 E4.00852
G1 X110.565 Y152.700 E4.01513
G1 X110.504 Y152.771 E4.01791
G1 X110.253 Y152.860 E4.02580
G1 X110.016 Y152.894 E4.03292
G1 X109.712 Y152.906 E4.04195
G1 X109.413 Y152.893 E4.05082
G1 X109.180 Y152.859 E4.05783
G1 X108.925 Y152.764 E4.06590
G1 X108.859 Y152.688 E4.06889
G1 X108.827 Y152.587 E4.07205
G1 X108.826 Y152.325 E4.07983
G1 X108.878 Y152.213 E4.08350
G1 X109.030 Y152.119 E4.08880
G1 X109.196 Y152.070 E4.09392
G1 X109.423 Y152.036 E4.10073
G1 X110.007 Y152.036 E4.11808
G1 X110.238 Y152.071 E4.12501
G1 X110.488 Y152.166 E4.13295
G1 X110.890 Y152.103 F7800.000
G1 X110.942 Y152.270 E4.13815 F1800.000
G1 X110.960 Y152.480 E4.14442
G1 X110.942 Y152.688 E4.15063
G1 X110.892 Y152.851 E4.15568
G1 X110.814 Y152.974 E4.16002
G1 X110.704 Y153.070 E4.16434
G1 X110.546 Y153.149 E4.16958
G1 X110.327 Y153.211 E4.17634
G1 X110.048 Y153.250 E4.18471
G1 X109.712 Y153.263 E4.19470
G1 X109.380 Y153.249 E4.20456
G1 X109.103 Y153.208 E4.21286
G1 X108.884 Y153.144 E4.21965
