; generated by Slic3r 1.2.9 on 2018-11-04 at 21:19:37

; external perimeters extrusion width = 0.40mm
; perimeters extrusion width = 0.67mm
; infill extrusion width = 0.67mm
; solid infill extrusion width = 0.67mm
; top infill extrusion width = 0.67mm

M107
M190 S55 ; set bed temperature
M104 S200 ; set temperature
G28 ; home all axes
G1 Z5 F5000 ; lift nozzle

G12 P1 S1 T3 ; clean printer w/zig zags
M109 S200 ; wait for temperature to be reached
G21 ; set units to millimeters
G90 ; use absolute coordinates
M82 ; use absolute distances for extrusion
G92 E0
G1 Z0.250 F7800.000
G1 E-4.00000 F600.00000
G92 E0
G1 X64.666 Y72.644 F7800.000
G1 E4.00000 F600.00000
G1 X66.359 Y71.144 E4.10494 F1800.000
G1 X68.467 Y70.322 E4.20989
G1 X69.720 Y70.199 E4.26831
G1 X131.360 Y70.199 E7.12794
G1 X131.438 Y70.199 E7.13156 F1800.000
G1 X133.665 Y70.596 E7.23651
G1 X135.617 Y71.738 E7.34145
G1 X137.375 Y74.135 E7.47932
G1 X155.486 Y116.965 E9.63669
G1 X155.982 Y119.070 E9.73699
G1 X156.687 Y130.224 E10.25553
G1 X156.677 Y131.172 E10.29950
G1 X155.775 Y141.874 E10.79775
G1 X155.192 Y144.060 E10.90269
G1 X153.890 Y145.910 E11.00764
G1 X152.637 Y146.879 E11.08112
G1 X149.275 Y148.871 E11.26242
G1 X147.157 Y149.664 E11.36737
G1 X144.219 Y149.523 E11.50383
G1 X115.856 Y141.422 E12.87226
G1 X113.824 Y140.429 E12.97720
G1 X112.662 Y139.335 E13.05125
G1 X65.340 Y82.187 E16.49346
G1 X64.340 Y80.518 E16.58374
G1 X63.754 Y79.088 E16.65543
G1 X63.278 Y76.876 E16.76037
G1 X63.595 Y74.636 E16.86532
G1 X64.637 Y72.697 E16.96748
G1 E12.96748 F600.00000
G92 E0
G1 X126.677 Y136.723 F7800.000
G1 E4.00000 F600.00000
G1 X120.265 Y134.892 E4.30937 F1800.000
G1 X120.866 Y132.788 E4.41088
G1 X127.278 Y134.619 E4.72025
G1 X126.694 Y136.665 E4.81898
G1 X126.567 Y137.108 F7800.000
G1 E0.81898 F600.00000
G92 E0
G1 X125.196 Y132.564 F7800.000
G1 E4.00000 F600.00000
G1 X124.921 Y132.654 E4.01344 F1800.000
G1 X124.600 Y132.721 E4.02864
G1 X124.138 Y132.750 E4.05012
G1 X123.637 Y132.693 E4.07353
G1 X123.128 Y132.533 E4.09826
G1 X122.872 Y132.408 E4.11149
G1 X122.629 Y132.258 E4.12474
G1 X122.215 Y131.905 E4.14996
G1 X121.890 Y131.494 E4.17428
G1 X121.647 Y131.025 E4.19880
G1 X121.504 Y130.547 E4.22194
G1 X121.458 Y130.214 E4.23754
G1 X121.450 Y129.949 E4.24982
G1 X121.506 Y129.444 E4.27338
G1 X121.656 Y128.953 E4.29721
G1 X121.895 Y128.498 E4.32107
G1 X122.227 Y128.083 E4.34574
G1 X122.455 Y127.874 E4.36008
G1 X122.670 Y127.714 E4.37248
G1 X123.126 Y127.468 E4.39654
G1 X123.396 Y127.370 E4.40986
G1 X123.671 Y127.301 E4.42303
G1 X124.149 Y127.250 E4.44533 F1800.000
G1 X124.440 Y127.260 E4.45883
G1 X124.734 Y127.302 E4.47261
G1 X125.194 Y127.435 E4.49484
G1 X125.655 Y127.666 E4.51873
G1 X125.904 Y127.841 E4.53290
G1 X126.131 Y128.041 E4.54692
G1 X126.462 Y128.435 E4.57075
G1 X126.611 Y128.677 E4.58395
G1 X126.735 Y128.934 E4.59720
G1 X126.834 Y129.207 E4.61067
G1 X126.904 Y129.498 E4.62455
G1 X126.951 Y129.990 E4.64748
G1 X126.907 Y130.486 E4.67060
G1 X126.836 Y130.784 E4.68481
G1 X126.733 Y131.073 E4.69903
G1 X126.497 Y131.513 E4.72217
G1 X126.316 Y131.757 E4.73628
G1 X126.110 Y131.979 E4.75033
G1 X125.726 Y132.289 E4.77323
G1 X125.469 Y132.440 E4.78705
G1 X125.251 Y132.539 E4.79819
G1 X125.147 Y132.849 F7800.000
G1 E0.79819 F600.00000
G92 E0
G1 X128.381 Y134.006 F7800.000
G1 E4.00000 F600.00000
G1 X125.814 Y133.273 E4.12385 F1800.000
G1 X126.235 Y133.024 E4.14652
G1 X126.721 Y132.633 E4.17545
G1 X127.004 Y132.328 E4.19477
G1 X127.253 Y131.992 E4.21418
G1 X127.551 Y131.436 E4.24343
G1 X127.693 Y131.039 E4.26299
G1 X127.791 Y130.630 E4.28251
G1 X127.847 Y129.987 E4.31245
G1 X127.787 Y129.349 E4.34218
G1 X127.690 Y128.950 E4.36125
G1 X127.559 Y128.588 E4.37909
G1 X127.395 Y128.247 E4.39665
G1 X127.187 Y127.910 E4.41500
G1 X126.772 Y127.416 E4.44497
G1 X126.458 Y127.140 E4.46435
G1 X126.114 Y126.897 E4.48385
G1 X125.521 Y126.600 E4.51464
G1 X124.922 Y126.427 E4.54360
G1 X124.519 Y126.370 E4.56248
G1 X124.118 Y126.356 E4.58110
G1 X123.515 Y126.420 E4.60923
G1 X123.134 Y126.515 E4.62741
G1 X122.760 Y126.651 E4.64591
G1 X122.189 Y126.960 E4.67602
G1 X121.886 Y127.185 E4.69353
G1 X121.574 Y127.471 E4.71318
G1 X121.145 Y128.007 E4.74502
G1 X120.827 Y128.612 E4.77673
G1 X120.627 Y129.263 E4.80833
G1 X120.556 Y129.913 E4.83867
G1 X120.567 Y130.289 E4.85609
G1 X120.629 Y130.737 E4.87708
G1 X120.815 Y131.361 E4.90728
G1 X121.110 Y131.929 E4.93697
G1 X120.253 Y131.684 E4.97833
G1 X119.434 Y134.552 E5.11667
G1 X118.577 Y134.307 E5.15803
G1 X114.924 Y119.572 E5.86230
G1 X120.251 Y117.632 E6.12531
G1 X121.470 Y120.959 E6.28970
G1 X121.868 Y121.433 E6.31841
G1 X122.405 Y121.743 E6.34716
G1 X122.966 Y121.842 E6.37359
G1 X123.373 Y121.806 E6.39254
G1 X127.002 Y120.495 E6.57154
G1 X127.408 Y120.261 E6.59331
G1 X127.698 Y119.971 E6.61231
G1 X127.982 Y119.478 E6.63869
G1 X128.090 Y118.867 E6.66747
G1 X128.000 Y118.357 E6.69153
G1 X126.859 Y115.226 E6.84612
G1 X132.962 Y113.003 E7.14745
G1 X146.917 Y117.780 E7.83172
G1 X148.271 Y119.658 E7.93914
G1 X146.812 Y123.768 E8.14145
G1 X144.941 Y120.017 E8.33593
G1 X141.344 Y121.866 E8.52357
G1 X138.991 Y117.879 E8.73835
G1 X135.351 Y120.061 E8.93521
G1 X130.352 Y117.840 E9.18900
G1 X131.338 Y129.694 E9.74083
G1 X136.251 Y127.622 E9.98819
G1 X138.605 Y132.224 E10.22803
G1 X142.362 Y129.586 E10.44100
G1 X144.703 Y133.779 E10.66378
G1 X149.058 Y131.207 E10.89843
G1 X148.262 Y140.650 E11.33808
G1 X145.830 Y142.091 E11.46922
G1 X127.563 Y136.873 E12.35058
G1 X128.365 Y134.064 E12.48614
G1 X127.830 Y134.312 F7800.000
G1 X124.591 Y133.387 E12.64242 F1800.000
G1 X124.598 Y133.178 E12.65215
G1 X125.037 Y133.086 E12.67294
G1 X125.358 Y132.980 E12.68864
G1 X125.675 Y132.836 E12.70479
G1 X125.981 Y132.656 E12.72123
G1 X126.416 Y132.306 E12.74715
G1 X126.660 Y132.042 E12.76383
G1 X126.875 Y131.752 E12.78059
G1 X127.142 Y131.254 E12.80679
G1 X127.265 Y130.912 E12.82367
G1 X127.349 Y130.558 E12.84054
G1 X127.399 Y129.988 E12.86707
G1 X127.346 Y129.423 E12.89340
G1 X127.262 Y129.078 E12.90987
G1 X127.147 Y128.761 E12.92553
G1 X127.003 Y128.462 E12.94093
G1 X126.824 Y128.172 E12.95671
G1 X126.451 Y127.728 E12.98361
G1 X126.181 Y127.491 E13.00031
G1 X125.885 Y127.281 E13.01714
G1 X125.358 Y127.018 E13.04448
G1 X124.828 Y126.864 E13.07008
G1 X124.479 Y126.815 E13.08641
G1 X124.133 Y126.803 E13.10247
G1 X123.593 Y126.860 E13.12768
G1 X123.265 Y126.942 E13.14336
G1 X122.943 Y127.059 E13.15927
G1 X122.429 Y127.337 E13.18635
G1 X122.171 Y127.530 E13.20131
G1 X121.901 Y127.777 E13.21830
G1 X121.520 Y128.252 E13.24656
G1 X121.241 Y128.783 E13.27434
G1 X121.067 Y129.354 E13.30206
G1 X121.003 Y129.931 E13.32901
G1 X121.013 Y130.251 E13.34386
G1 X121.067 Y130.642 E13.36215
G1 X121.231 Y131.193 E13.38882
G1 X121.513 Y131.738 E13.41729
G1 X121.892 Y132.217 E13.44563
G1 X122.211 Y132.488 E13.46506
G1 X122.109 Y132.679 E13.47508
G1 X120.559 Y132.236 E13.54986
G1 X119.740 Y135.103 E13.68821
G1 X118.206 Y134.665 E13.76226
G1 X114.394 Y119.290 E14.49713
G1 X120.517 Y117.060 E14.79942
G1 X121.863 Y120.732 E14.98085
G1 X122.160 Y121.086 E15.00228
G1 X122.560 Y121.317 E15.02374
G1 X122.986 Y121.392 E15.04378
G1 X123.276 Y121.366 E15.05730
G1 X126.813 Y120.089 E15.23177
G1 X127.134 Y119.903 E15.24897
G1 X127.341 Y119.697 E15.26252
G1 X127.556 Y119.323 E15.28253
G1 X127.637 Y118.868 E15.30400
G1 X127.567 Y118.473 E15.32260
G1 X126.287 Y114.959 E15.49609
G1 X132.958 Y112.530 E15.82544
G1 X147.196 Y117.404 E16.52361
G1 X148.770 Y119.587 E16.64848
G1 X147.075 Y124.362 E16.88356
G1 X146.515 Y124.172 E16.91098
G1 X144.743 Y120.620 E17.09514
G1 X141.173 Y122.455 E17.28135
G1 X138.835 Y118.493 E17.49482
G1 X135.382 Y120.563 E17.68159
G1 X130.859 Y118.554 E17.91118
G1 X131.732 Y129.044 E18.39950
G1 X136.459 Y127.049 E18.63753
G1 X138.769 Y131.564 E18.87279
G1 X142.511 Y128.937 E19.08490
G1 X144.870 Y133.162 E19.30943
G1 X148.885 Y130.790 E19.52576
G1 X149.517 Y131.068 E19.55782
G1 X148.687 Y140.917 E20.01633
G1 X145.892 Y142.573 E20.16706
G1 X127.011 Y137.180 E21.07804
G1 X127.813 Y134.370 E21.21360
G1 E17.21360 F600.00000
G92 E0
G1 X132.126 Y128.393 F7800.000
G1 E4.00000 F600.00000
G1 X136.668 Y126.477 E4.22870 F1800.000
G1 X138.932 Y130.904 E4.45939
G1 X142.659 Y128.287 E4.67065
G1 X145.037 Y132.545 E4.89691
G1 X148.855 Y130.290 E5.10263
G1 X149.989 Y130.788 E5.16011
G1 X149.113 Y141.183 E5.64409
G1 X145.954 Y143.055 E5.81441
G1 X117.834 Y135.023 E7.17113
G1 X113.864 Y119.008 E7.93661
G1 X120.782 Y116.489 E8.27818
G1 X122.255 Y120.505 E8.47664
G1 X122.451 Y120.739 E8.49079
G1 X122.715 Y120.891 E8.50494
G1 X123.005 Y120.942 E8.51860
G1 X123.179 Y120.927 E8.52669
G1 X126.624 Y119.683 E8.69663
G1 X126.860 Y119.546 E8.70927
G1 X126.983 Y119.423 E8.71737
G1 X127.130 Y119.168 E8.73101
G1 X127.183 Y118.868 E8.74517
G1 X127.134 Y118.589 E8.75830
G1 X125.715 Y114.692 E8.95069
G1 X132.953 Y112.056 E9.30806
G1 X147.475 Y117.028 E10.02013
G1 X149.269 Y119.516 E10.16245
G1 X147.348 Y124.927 E10.42882
G1 X146.198 Y124.536 E10.48519
G1 X144.545 Y121.224 E10.65691
G1 X141.003 Y123.045 E10.84169
G1 X138.679 Y119.107 E11.05384
G1 X135.413 Y121.065 E11.23051
G1 X131.367 Y119.268 E11.43591
G1 X132.121 Y128.333 E11.85794
G1 X132.242 Y128.776 F7800.000
G1 E7.85794 F600.00000
G92 E0
G1 X124.371 Y133.275 F7800.000
G1 E4.00000 F600.00000
G1 X123.529 Y133.106 E4.08447 F1800.000
G1 X122.953 Y132.931 E4.14374
G1 X122.358 Y132.687 E4.20696
G1 E0.20696 F600.00000
G92 E0
G1 X119.941 Y135.212 F7800.000
G1 E4.00000 F600.00000
G1 X126.783 Y137.166 E4.69983 F1800.000
G1 X128.018 Y136.163 F7800.000
G1 X128.766 Y136.911 E4.74905 F1800.000
G1 X129.652 Y137.164 E4.79195
G1 X128.158 Y135.670 E4.89025
G1 X128.299 Y135.178 E4.91409
G1 X130.538 Y137.417 E5.06147
G1 X131.425 Y137.670 E5.10436
G1 X128.439 Y134.685 E5.30082
G1 X128.580 Y134.193 E5.32466
G1 X132.311 Y137.923 E5.57018
G1 X133.197 Y138.177 E5.61308
G1 X127.313 Y132.292 E6.00034
G1 X127.561 Y131.907 E6.02166
G1 X134.084 Y138.430 E6.45093
G1 X134.970 Y138.683 E6.49382
G1 X127.782 Y131.495 E6.96690
G1 X127.948 Y131.028 E6.98996
G1 X135.856 Y138.936 E7.51042
G1 X136.743 Y139.189 E7.55331
G1 X128.059 Y130.506 E8.12477
G1 X128.111 Y129.924 E8.15196
G1 X137.629 Y139.442 E8.77838
G1 X138.515 Y139.696 E8.82127
G1 X128.051 Y129.231 E9.50994
G1 X127.787 Y128.334 F7800.000
G1 X139.402 Y139.949 E10.27431 F1800.000
G1 X140.288 Y140.202 E10.31721
G1 X121.930 Y121.844 E11.52541
G1 X122.823 Y122.104 E11.56871
G1 X141.174 Y140.455 E12.77645
G1 E8.77645 F600.00000
G92 E0
G1 X143.959 Y133.108 F7800.000
G1 E4.00000 F600.00000
G1 X141.394 Y130.544 E4.16877 F1800.000
G1 X141.766 Y130.283 E4.18992
G1 X143.158 Y131.675 E4.28153
G1 X142.358 Y130.241 F7800.000
G1 X142.138 Y130.021 E4.29597 F1800.000
G1 E0.29597 F600.00000
G92 E0
G1 X138.790 Y132.372 F7800.000
G1 E4.00000 F600.00000
G1 X147.344 Y140.926 E4.56298 F1800.000
G1 X147.742 Y140.691 E4.58449
G1 X139.162 Y132.111 E5.14915
G1 X139.534 Y131.850 E5.17030
G1 X148.030 Y140.345 E5.72940
G1 X148.079 Y139.761 E5.75667
G1 X139.906 Y131.589 E6.29453
G1 X140.278 Y131.327 E6.31568
G1 X148.128 Y139.177 E6.83230
G1 X148.177 Y138.593 E6.85957
G1 X140.650 Y131.066 E7.35494
G1 X141.022 Y130.805 E7.37609
G1 X148.226 Y138.009 E7.85021
G1 X148.276 Y137.425 E7.87749
G1 X144.825 Y133.974 E8.10460
G1 X145.223 Y133.739 E8.12612
G1 X148.325 Y136.841 E8.33028
G1 X148.374 Y136.257 E8.35755
G1 X145.621 Y133.504 E8.53875
G1 X146.019 Y133.269 E8.56027
G1 X148.423 Y135.673 E8.71852
G1 X148.473 Y135.089 E8.74579
G1 X146.417 Y133.034 E8.88108
G1 X146.815 Y132.798 E8.90259
G1 X148.522 Y134.505 E9.01493
G1 X148.571 Y133.921 E9.04220
G1 X147.213 Y132.563 E9.13158
G1 X147.611 Y132.328 E9.15310
G1 X148.620 Y133.337 E9.21952
G1 X148.669 Y132.754 E9.24679
G1 X148.009 Y132.093 E9.29026
G1 X148.407 Y131.858 E9.31177
G1 X148.719 Y132.170 E9.33228
G1 E5.33228 F600.00000
G92 E0
G1 X146.914 Y122.767 F7800.000
G1 E4.00000 F600.00000
G1 X146.421 Y122.274 E4.03247 F1800.000
G1 X145.791 Y121.010 F7800.000
G1 X147.080 Y122.300 E4.11735 F1800.000
G1 X147.246 Y121.833 E4.14043
G1 X141.739 Y116.325 E4.50288
G1 X142.702 Y116.655 F7800.000
G1 X147.412 Y121.365 E4.81289 F1800.000
G1 X147.578 Y120.898 E4.83596
G1 X143.664 Y116.984 E5.09352
G1 X144.627 Y117.314 F7800.000
G1 X147.744 Y120.431 E5.29864 F1800.000
G1 X147.910 Y119.963 E5.32171
G1 X145.590 Y117.644 E5.47438
G1 X146.553 Y117.973 F7800.000
G1 X146.863 Y118.283 E5.49478 F1800.000
G1 E1.49478 F600.00000
G92 E0
G1 X144.674 Y119.893 F7800.000
G1 E4.00000 F600.00000
G1 X140.776 Y115.996 E4.25651 F1800.000
G1 X139.813 Y115.666 F7800.000
G1 X144.255 Y120.108 E4.54886 F1800.000
G1 X143.837 Y120.323 E4.57074
G1 X138.851 Y115.336 E4.89893
G1 X137.888 Y115.007 F7800.000
G1 X143.419 Y120.538 E5.26296 F1800.000
G1 X143.001 Y120.753 E5.28484
G1 X136.925 Y114.677 E5.68472
G1 X135.962 Y114.348 F7800.000
G1 X142.583 Y120.968 E6.12044 F1800.000
G1 X142.165 Y121.183 E6.14232
G1 X140.102 Y119.121 E6.27804
G1 X141.014 Y120.666 F7800.000
G1 X141.746 Y121.398 E6.32623 F1800.000
G1 E2.32623 F600.00000
G92 E0
G1 X138.742 Y117.761 F7800.000
G1 E4.00000 F600.00000
G1 X134.999 Y114.018 E4.24631 F1800.000
G1 X134.037 Y113.688 F7800.000
G1 X138.346 Y117.998 E4.52992 F1800.000
G1 X137.950 Y118.235 E4.55140
G1 X133.074 Y113.359 E4.87233
G1 X132.505 Y113.423 E4.89897
G1 X137.554 Y118.473 E5.23129
G1 X137.159 Y118.710 E5.25277
G1 X132.041 Y113.592 E5.58959
G1 X131.577 Y113.761 E5.61258
G1 X136.763 Y118.947 E5.95389
G1 X136.367 Y119.185 E5.97536
G1 X131.112 Y113.930 E6.32117
G1 X130.648 Y114.099 E6.34416
G1 X135.971 Y119.422 E6.69446
G1 X135.575 Y119.659 E6.71594
G1 X130.184 Y114.268 E7.07074
G1 X129.720 Y114.437 E7.09372
G1 X134.725 Y119.442 E7.42310
G1 X133.586 Y118.936 F7800.000
G1 X129.256 Y114.606 E7.70805 F1800.000
G1 X128.792 Y114.775 E7.73104
G1 X132.446 Y118.430 E7.97157
G1 X131.307 Y117.924 F7800.000
G1 X128.327 Y114.944 E8.16767 F1800.000
G1 X127.863 Y115.113 E8.19066
G1 X130.168 Y117.418 E8.34234
G1 X130.089 Y117.972 E8.36840
G1 X127.399 Y115.282 E8.54544
G1 X127.452 Y115.969 E8.57746
G1 X130.147 Y118.663 E8.75480
G1 X130.204 Y119.354 E8.78705
G1 X127.815 Y116.964 E8.94429
G1 X128.177 Y117.960 F7800.000
G1 X130.262 Y120.044 E9.08145 F1800.000
G1 X130.319 Y120.735 E9.11371
G1 X128.359 Y118.775 E9.24267
G1 X128.265 Y119.314 E9.26810
G1 X130.376 Y121.426 E9.40709
G1 X130.434 Y122.116 E9.43934
G1 X128.082 Y119.765 E9.59410
G1 X127.836 Y120.151 E9.61544
G1 X130.491 Y122.807 E9.79021
G1 X130.549 Y123.498 E9.82246
G1 X127.515 Y120.464 E10.02209
G1 X127.114 Y120.696 E10.04366
G1 X130.606 Y124.188 E10.27349
G1 X130.664 Y124.879 E10.30574
G1 X126.658 Y120.873 E10.56939
G1 X126.192 Y121.041 E10.59240
G1 X130.721 Y125.570 E10.89045
G1 X130.779 Y126.260 E10.92270
G1 X125.727 Y121.209 E11.25514
G1 X125.262 Y121.377 E11.27816
G1 X130.836 Y126.951 E11.64500
G1 X130.894 Y127.641 E11.67725
G1 X124.797 Y121.545 E12.07848
G1 X124.332 Y121.713 E12.10150
G1 X130.951 Y128.332 E12.53713
G1 X131.009 Y129.023 E12.56938
G1 X123.867 Y121.881 E13.03941
G1 X123.401 Y122.049 E13.06242
G1 X131.066 Y129.713 E13.56685
G1 X131.313 Y129.960 F7800.000
G1 X142.061 Y140.708 E14.27418 F1800.000
G1 X142.947 Y140.961 E14.31708
G1 X131.758 Y129.772 E15.05344
G1 X132.204 Y129.585 E15.07593
G1 X143.833 Y141.214 E15.84132
G1 X144.720 Y141.468 E15.88422
G1 X132.649 Y129.397 E16.67863
G1 X133.094 Y129.209 E16.70113
G1 X145.606 Y141.721 E17.52457
G1 X146.152 Y141.633 E17.55028
G1 X133.539 Y129.021 E18.38032
G1 X133.985 Y128.833 E18.40281
G1 X146.549 Y141.398 E19.22971
G1 X146.947 Y141.162 E19.25122
G1 X134.430 Y128.645 E20.07498
G1 X134.875 Y128.457 E20.09747
G1 X137.834 Y131.416 E20.29220
G1 X137.171 Y130.120 F7800.000
G1 X135.321 Y128.269 E20.41398 F1800.000
G1 X135.766 Y128.081 E20.43648
G1 X136.508 Y128.824 E20.48532
G1 E16.48532 F600.00000
G92 E0
G1 X127.970 Y133.582 F7800.000
G1 E4.00000 F600.00000
G1 X127.025 Y132.637 E4.06218 F1800.000
G1 X126.697 Y132.943 E4.08303
G1 X127.083 Y133.329 E4.10843
G1 E0.10843 F600.00000
G92 E0
G1 X125.876 Y126.423 F7800.000
G1 E4.00000 F600.00000
G1 X118.116 Y118.663 E4.51073 F1800.000
G1 X117.652 Y118.832 E4.53372
G1 X124.972 Y126.152 E5.01548
