; generated by Slic3r 1.2.9 on 2018-11-05 at 14:54:16

; external perimeters extrusion width = 0.40mm
; perimeters extrusion width = 0.67mm
; infill extrusion width = 0.67mm
; solid infill extrusion width = 0.67mm
; top infill extrusion width = 0.67mm
; support material extrusion width = 0.40mm

M107
M190 S55 ; set bed temperature
M104 S200 ; set temperature
G28 ; home all axes
G1 Z5 F5000 ; lift nozzle

G12 P1 S1 T3 ; clean printer w/zig zags
M109 S200 ; wait for temperature to be reached
G21 ; set units to millimeters
G90 ; use absolute coordinates
M82 ; use absolute distances for extrusion
G92 E0
G1 Z0.200 F7800.000
G1 E-4.00000 F600.00000
G92 E0
G1 X71.427 Y71.977 F7800.000
G1 E4.00000 F600.00000
G1 X72.760 Y70.672 E4.05538 F1800.000
G1 X73.998 Y69.536 E4.10526
G1 X75.555 Y68.203 E4.16613
G1 X77.014 Y67.042 E4.22149
G1 X78.372 Y66.034 E4.27171
G1 X80.049 Y64.874 E4.33224
G1 X81.620 Y63.870 E4.38761
G1 X83.084 Y63.002 E4.43815
G1 X84.862 Y62.027 E4.49835
G1 X86.645 Y61.136 E4.55751
G1 X88.223 Y60.412 E4.60909
G1 X89.806 Y59.747 E4.66005
G1 X91.818 Y58.985 E4.72392
G1 X93.454 Y58.431 E4.77521
G1 X95.239 Y57.892 E4.83057
G1 X97.185 Y57.380 E4.89032
G1 X98.859 Y57.000 E4.94131
G1 X100.565 Y56.670 E4.99289
G1 X102.689 Y56.338 E5.05672
G1 X104.385 Y56.134 E5.10742
G1 X106.126 Y55.981 E5.15933
G1 X108.105 Y55.875 E5.21816
G1 X110.141 Y55.843 E5.27863
G1 X112.009 Y55.880 E5.33409 F1800.000
G1 X113.758 Y55.972 E5.38610
G1 X115.455 Y56.118 E5.43668
G1 X117.467 Y56.359 E5.49684
G1 X119.309 Y56.648 E5.55220
G1 X121.141 Y57.000 E5.60758
G1 X123.089 Y57.448 E5.66693
G1 X124.761 Y57.892 E5.71832
G1 X126.412 Y58.389 E5.76951
G1 X128.312 Y59.031 E5.82905
G1 X130.056 Y59.691 E5.88442
G1 X131.916 Y60.473 E5.94431
G1 X133.471 Y61.190 E5.99515
G1 X135.027 Y61.970 E6.04684
G1 X136.774 Y62.921 E6.10590
G1 X138.380 Y63.870 E6.16129
G1 X140.092 Y64.969 E6.22170
G1 X141.487 Y65.932 E6.27202
G1 X142.899 Y66.977 E6.32417
G1 X144.445 Y68.203 E6.38276
G1 X145.864 Y69.414 E6.43815
G1 X147.376 Y70.801 E6.49908
G1 X148.572 Y71.977 E6.54888
G1 X149.795 Y73.260 E6.60149
G1 X151.098 Y74.721 E6.65964
G1 X152.289 Y76.157 E6.71501
G1 X153.551 Y77.798 E6.77648
G1 X154.518 Y79.147 E6.82576
G1 X155.511 Y80.632 E6.87879
G1 X156.536 Y82.283 E6.93650
G1 X157.567 Y84.090 E6.99828
G1 X158.466 Y85.816 E7.05607
G1 X159.238 Y87.423 E7.10900
G1 X159.907 Y88.944 E7.15833
G1 X160.676 Y90.865 E7.21976
G1 X161.335 Y92.715 E7.27807
G1 X161.873 Y94.397 E7.33051
G1 X162.331 Y96.008 E7.38023
G1 X162.825 Y98.003 E7.44125
G1 X163.207 Y99.829 E7.49664
G1 X163.543 Y101.785 E7.55557
G1 X163.782 Y103.514 E7.60739
G1 X163.958 Y105.197 E7.65763
G1 X164.102 Y107.229 E7.71813
G1 X164.166 Y109.093 E7.77352
G1 X164.162 Y111.099 E7.83307
G1 X164.101 Y112.822 E7.88425
G1 X163.985 Y114.528 E7.93504
G1 X163.780 Y116.537 E7.99499
G1 X163.523 Y118.385 E8.05039
G1 X163.203 Y120.223 E8.10576
G1 X162.782 Y122.210 E8.16610
G1 X162.375 Y123.859 E8.21651
G1 X161.905 Y125.526 E8.26793
G1 X161.298 Y127.430 E8.32727
G1 X160.669 Y129.185 E8.38263
G1 X159.905 Y131.091 E8.44360
G1 X159.229 Y132.626 E8.49340
G1 X158.473 Y134.203 E8.54533
G1 X157.557 Y135.959 E8.60414
G1 X156.588 Y137.663 E8.66232
G1 X155.546 Y139.346 E8.72112
G1 X154.574 Y140.804 E8.77312
G1 X153.603 Y142.164 E8.82274
G1 X152.350 Y143.798 E8.88390
G1 X151.077 Y145.334 E8.94312
G1 X149.924 Y146.633 E8.99470
G1 X148.766 Y147.856 E9.04469
G1 X147.309 Y149.295 E9.10550
G1 X145.935 Y150.555 E9.16086
G1 X144.517 Y151.769 E9.21628
G1 X142.939 Y153.024 E9.27613
G1 X141.562 Y154.046 E9.32706
G1 X140.162 Y155.015 E9.37760
G1 X138.456 Y156.114 E9.43785
G1 X136.852 Y157.066 E9.49324
G1 X135.067 Y158.040 E9.55362
G1 X133.395 Y158.877 E9.60914
G1 X131.856 Y159.585 E9.65944
G1 X130.270 Y160.253 E9.71054
G1 X128.392 Y160.971 E9.77022
G1 X126.450 Y161.631 E9.83113
G1 X124.842 Y162.116 E9.88101
G1 X123.166 Y162.563 E9.93251
G1 X121.221 Y163.014 E9.99178
G1 X119.389 Y163.369 E10.04718
G1 X117.344 Y163.689 E10.10863
G1 X115.489 Y163.910 E10.16411
G1 X113.836 Y164.053 E10.21336
G1 X112.083 Y164.147 E10.26549
G1 X110.108 Y164.189 E10.32416
G1 X108.027 Y164.153 E10.38595
G1 X106.164 Y164.053 E10.44135
G1 X104.189 Y163.875 E10.50021
G1 X102.453 Y163.661 E10.55214
G1 X100.808 Y163.403 E10.60159
G1 X98.972 Y163.054 E10.65709
G1 X96.961 Y162.597 E10.71832
G1 X95.030 Y162.078 E10.77768
G1 X93.373 Y161.574 E10.82911
G1 X91.779 Y161.032 E10.87909
G1 X90.030 Y160.374 E10.93459
G1 X88.144 Y159.585 E10.99527
G1 X86.450 Y158.803 E11.05067
G1 X84.649 Y157.890 E11.11064
G1 X83.148 Y157.066 E11.16146
G1 X81.681 Y156.198 E11.21208
G1 X79.974 Y155.107 E11.27225
G1 X78.438 Y154.046 E11.32766
G1 X76.808 Y152.828 E11.38807
G1 X75.483 Y151.769 E11.43843
G1 X74.173 Y150.650 E11.48959
G1 X72.691 Y149.295 E11.54921
G1 X71.361 Y147.986 E11.60462
G1 X69.952 Y146.496 E11.66551
G1 X68.839 Y145.237 E11.71541
G1 X67.729 Y143.896 E11.76709
G1 X66.512 Y142.320 E11.82622
G1 X65.315 Y140.641 E11.88745
G1 X64.392 Y139.250 E11.93700
G1 X63.470 Y137.758 E11.98909
G1 X62.540 Y136.135 E12.04460
G1 X61.620 Y134.390 E12.10318
G1 X60.770 Y132.626 E12.16132
G1 X59.975 Y130.804 E12.22034
G1 X59.331 Y129.185 E12.27208
G1 X58.761 Y127.600 E12.32211
G1 X58.132 Y125.653 E12.38283
G1 X57.625 Y123.859 E12.43820
G1 X57.179 Y122.047 E12.49359
G1 X56.770 Y120.081 E12.55323
G1 X56.477 Y118.385 E12.60433
G1 X56.240 Y116.690 E12.65513
G1 X56.028 Y114.683 E12.71507
G1 X55.899 Y112.822 E12.77046
G1 X55.833 Y110.796 E12.83064
G1 X55.834 Y109.093 E12.88120
G1 X55.893 Y107.362 E12.93263
G1 X56.026 Y105.368 E12.99196
G1 X56.218 Y103.514 E13.04732
G1 X56.502 Y101.488 E13.10804
G1 X56.793 Y99.829 E13.15807
G1 X57.152 Y98.112 E13.21014
G1 X57.620 Y96.192 E13.26882
G1 X58.127 Y94.397 E13.32420
G1 X58.759 Y92.434 E13.38544
G1 X59.324 Y90.865 E13.43494
G1 X59.980 Y89.216 E13.48765
G1 X60.762 Y87.424 E13.54569
G1 X61.664 Y85.553 E13.60735
G1 X62.433 Y84.090 E13.65644
G1 X63.318 Y82.531 E13.70967
G1 X64.331 Y80.876 E13.76727
G1 X65.482 Y79.146 E13.82896
G1 X66.622 Y77.565 E13.88684
G1 X67.711 Y76.157 E13.93970
G1 X68.773 Y74.872 E13.98919
G1 X70.141 Y73.327 E14.05047
G1 X71.385 Y72.020 E14.10404
G1 E10.10404 F600.00000
G92 E0
G1 X141.792 Y142.518 F7800.000
G1 E4.00000 F600.00000
G1 X141.295 Y143.007 E4.02071 F1800.000
G1 X140.139 Y144.067 E4.06727
G1 X139.022 Y145.023 E4.11093
G1 X137.719 Y146.065 E4.16046
G1 X136.460 Y146.999 E4.20702
G1 X135.251 Y147.834 E4.25065
G1 X133.846 Y148.736 E4.30021
G1 X132.497 Y149.535 E4.34676
G1 X131.209 Y150.240 E4.39036
G1 X129.717 Y150.993 E4.43996
G1 X128.294 Y151.648 E4.48649
G1 X126.847 Y152.254 E4.53308
G1 X125.475 Y152.775 E4.57665
G1 X123.893 Y153.316 E4.62629
G1 X122.393 Y153.768 E4.67281
G1 X120.876 Y154.170 E4.71940
G1 X119.446 Y154.496 E4.76295
G1 X117.804 Y154.815 E4.81262
G1 X116.256 Y155.057 E4.85914
G1 X114.800 Y155.234 E4.90268
G1 X113.133 Y155.382 E4.95237
G1 X111.569 Y155.463 E4.99888
G1 X110.000 Y155.490 E5.04546
G1 X108.434 Y155.463 E5.09197
G1 X106.763 Y155.373 E5.14166
G1 X105.302 Y155.246 E5.18520
G1 X103.746 Y155.058 E5.23172
G1 X102.094 Y154.796 E5.28139
G1 X100.654 Y154.519 E5.32494
G1 X99.126 Y154.170 E5.37146
G1 X97.510 Y153.739 E5.42112
G1 X96.106 Y153.315 E5.46468
G1 X94.620 Y152.810 E5.51127
G1 X93.155 Y152.254 E5.55780
G1 X91.614 Y151.606 E5.60742
G1 X90.281 Y150.992 E5.65100
G1 X88.879 Y150.287 E5.69760
G1 X87.504 Y149.535 E5.74413
G1 X86.069 Y148.682 E5.79371
G1 X84.832 Y147.890 E5.83732
G1 X83.541 Y146.999 E5.88388
G1 X82.202 Y146.003 E5.93342
G1 X81.053 Y145.086 E5.97707
G1 X79.861 Y144.067 E6.02363
G1 X78.634 Y142.940 E6.07312
G1 X77.585 Y141.908 E6.11681
G1 X76.504 Y140.771 E6.16338
G1 X75.401 Y139.524 E6.21283
G1 X74.463 Y138.388 E6.25656
G1 X73.505 Y137.145 E6.30314
G1 X72.538 Y135.792 E6.35253
G1 X71.722 Y134.564 E6.39631
G1 X70.898 Y133.229 E6.44290
G1 X70.076 Y131.786 E6.49219
G1 X69.350 Y130.397 E6.53873
G1 X68.671 Y128.983 E6.58532
G1 X68.076 Y127.629 E6.62920
G1 X67.461 Y126.088 E6.67846
G1 X66.933 Y124.612 E6.72502
G1 X66.481 Y123.203 E6.76896
G1 X66.029 Y121.609 E6.81816
G1 X65.655 Y120.087 E6.86469
G1 X65.334 Y118.551 E6.91128
G1 X65.080 Y117.090 E6.95531
G1 X64.852 Y115.451 E7.00443
G1 X64.692 Y113.893 E7.05095
G1 X64.585 Y112.328 E7.09753
G1 X64.534 Y110.842 E7.14166
G1 X64.534 Y109.191 E7.19070
G1 X64.589 Y107.624 E7.23723
G1 X64.692 Y106.140 E7.28142
G1 X64.862 Y104.499 E7.33039
G1 X65.079 Y102.947 E7.37692
G1 X65.335 Y101.479 E7.42118
G1 X65.673 Y99.866 E7.47009
G1 X66.049 Y98.345 E7.51662
G1 X66.457 Y96.909 E7.56094
G1 X66.958 Y95.342 E7.60979
G1 X67.489 Y93.868 E7.65631
G1 X68.072 Y92.412 E7.70288
G1 X68.674 Y91.043 E7.74728
G1 X69.385 Y89.562 E7.79605
G1 X70.114 Y88.175 E7.84257
G1 X70.891 Y86.813 E7.88914
G1 X71.713 Y85.479 E7.93566
G1 X72.624 Y84.116 E7.98434
G1 X73.497 Y82.898 E8.02883
G1 X74.453 Y81.655 E8.07540
G1 X75.452 Y80.447 E8.12193
G1 X76.539 Y79.223 E8.17053
G1 X77.573 Y78.135 E8.21510
G1 X78.691 Y77.037 E8.26163
G1 X79.897 Y75.933 E8.31019
G1 X81.039 Y74.957 E8.35479
G1 X82.264 Y73.979 E8.40133
G1 X83.577 Y73.007 E8.44984
G1 X84.815 Y72.153 E8.49448
G1 X86.135 Y71.307 E8.54102
G1 X87.540 Y70.476 E8.58950
G1 X88.860 Y69.754 E8.63418
G1 X90.261 Y69.049 E8.68075
G1 X91.685 Y68.393 E8.72729
G1 X93.190 Y67.763 E8.77572
G1 X94.598 Y67.229 E8.82043
G1 X96.083 Y66.724 E8.86701
G1 X97.583 Y66.270 E8.91355
G1 X99.159 Y65.853 E8.96195
G1 X100.628 Y65.518 E9.00668
G1 X102.167 Y65.221 E9.05324
G1 X103.778 Y64.970 E9.10163
G1 X105.274 Y64.788 E9.14637
G1 X106.836 Y64.652 E9.19293
G1 X108.463 Y64.568 E9.24131
G1 X109.970 Y64.542 E9.28605
G1 X111.538 Y64.568 E9.33261
G1 X113.164 Y64.652 E9.38097 F1800.000
G1 X114.726 Y64.788 E9.42751
G1 X116.283 Y64.978 E9.47409
G1 X117.772 Y65.211 E9.51883
G1 X119.372 Y65.518 E9.56722
G1 X120.901 Y65.868 E9.61378
G1 X122.357 Y66.253 E9.65850
G1 X123.918 Y66.724 E9.70692
G1 X125.402 Y67.229 E9.75347
G1 X126.810 Y67.763 E9.79817
G1 X128.315 Y68.393 E9.84661
G1 X129.739 Y69.049 E9.89316
G1 X131.083 Y69.725 E9.93784
G1 X132.516 Y70.507 E9.98631
G1 X133.865 Y71.307 E10.03285
G1 X135.131 Y72.118 E10.07750
G1 X136.476 Y73.044 E10.12600
G1 X137.735 Y73.979 E10.17254
G1 X138.910 Y74.915 E10.21716
G1 X140.154 Y75.977 E10.26570
G1 X141.309 Y77.036 E10.31224
G1 X142.380 Y78.088 E10.35681
G1 X143.508 Y79.273 E10.40540
G1 X144.547 Y80.446 E10.45193
G1 X145.503 Y81.602 E10.49647
G1 X146.504 Y82.899 E10.54510
G1 X147.417 Y84.172 E10.59163
G1 X148.247 Y85.420 E10.63611
G1 X149.110 Y86.814 E10.68481
G1 X149.886 Y88.175 E10.73132
G1 X150.615 Y89.564 E10.77789
G1 X151.296 Y90.976 E10.82446
G1 X151.928 Y92.410 E10.87097
G1 X152.536 Y93.938 E10.91979
G1 X153.042 Y95.343 E10.96415
G1 X153.522 Y96.837 E11.01072
G1 X153.951 Y98.344 E11.05724
G1 X154.344 Y99.943 E11.10613
G1 X154.651 Y101.402 E11.15041
G1 X154.921 Y102.946 E11.19694
G1 X155.147 Y104.579 E11.24589
G1 X155.302 Y106.060 E11.29010
G1 X155.411 Y107.623 E11.33664
G1 X155.467 Y109.273 E11.38565
G1 X155.468 Y110.760 E11.42980
G1 X155.415 Y112.327 E11.47634
G1 X155.301 Y113.976 E11.52541
G1 X155.148 Y115.452 E11.56949
G1 X154.933 Y117.006 E11.61607
G1 X154.666 Y118.550 E11.66260
G1 X154.325 Y120.171 E11.71176
G1 X153.971 Y121.609 E11.75575
G1 X153.545 Y123.119 E11.80234
G1 X153.068 Y124.612 E11.84887
G1 X152.506 Y126.173 E11.89811
G1 X151.959 Y127.546 E11.94201
G1 X151.329 Y128.982 E11.98857
G1 X150.610 Y130.478 E12.03786
G1 X149.924 Y131.786 E12.08171
G1 X149.149 Y133.150 E12.12827
G1 X148.278 Y134.564 E12.17759
G1 X147.409 Y135.869 E12.22414
G1 X146.495 Y137.145 E12.27075
G1 X145.596 Y138.313 E12.31450
G1 X144.537 Y139.597 E12.36393
G1 X143.496 Y140.771 E12.41050
G1 X142.483 Y141.838 E12.45421
G1 X141.835 Y142.476 E12.48119
G1 X142.043 Y142.773 F7800.000
G1 X141.541 Y143.266 E12.50209 F1800.000
G1 X140.376 Y144.334 E12.54902
G1 X139.250 Y145.299 E12.59305
G1 X137.937 Y146.348 E12.64294
G1 X136.668 Y147.289 E12.68987
G1 X135.449 Y148.131 E12.73386
G1 X134.033 Y149.040 E12.78379
G1 X132.674 Y149.845 E12.83071
G1 X131.375 Y150.556 E12.87467
G1 X129.873 Y151.314 E12.92464
G1 X128.438 Y151.974 E12.97154
G1 X126.979 Y152.586 E13.01850
G1 X125.596 Y153.110 E13.06242
G1 X124.002 Y153.656 E13.11243
G1 X122.490 Y154.112 E13.15933
G1 X120.961 Y154.517 E13.20628
G1 X119.520 Y154.846 E13.25018
G1 X117.865 Y155.167 E13.30022
G1 X116.305 Y155.411 E13.34712
G1 X114.837 Y155.589 E13.39101
G1 X113.158 Y155.738 E13.44106
G1 X111.581 Y155.820 E13.48795
G1 X110.000 Y155.847 E13.53490
G1 X108.421 Y155.820 E13.58179
G1 X106.738 Y155.729 E13.63184
G1 X105.265 Y155.602 E13.67574
G1 X103.697 Y155.411 E13.72263
G1 X102.032 Y155.148 E13.77267
G1 X100.580 Y154.868 E13.81657
G1 X99.040 Y154.517 E13.86347
G1 X97.412 Y154.083 E13.91350
G1 X95.997 Y153.655 E13.95741
G1 X94.499 Y153.146 E14.00437
G1 X93.022 Y152.586 E14.05127
G1 X91.470 Y151.933 E14.10126
G1 X90.126 Y151.314 E14.14520
G1 X88.713 Y150.603 E14.19216
G1 X87.327 Y149.846 E14.23906
G1 X85.881 Y148.986 E14.28901
G1 X84.634 Y148.187 E14.33298
G1 X83.333 Y147.290 E14.37991
G1 X81.984 Y146.286 E14.42982
G1 X80.826 Y145.362 E14.47383
G1 X79.624 Y144.335 E14.52076
G1 X78.388 Y143.199 E14.57062
G1 X77.330 Y142.158 E14.61467
G1 X76.241 Y141.012 E14.66161
G1 X75.129 Y139.756 E14.71142
G1 X74.184 Y138.611 E14.75552
G1 X73.219 Y137.358 E14.80246
G1 X72.244 Y135.995 E14.85222
G1 X71.421 Y134.757 E14.89637
G1 X70.590 Y133.411 E14.94332
G1 X69.763 Y131.957 E14.99299
G1 X69.030 Y130.557 E15.03989
G1 X68.346 Y129.132 E15.08685
G1 X67.747 Y127.767 E15.13109
G1 X67.127 Y126.215 E15.18072
G1 X66.594 Y124.727 E15.22764
G1 X66.139 Y123.306 E15.27195
G1 X65.683 Y121.700 E15.32152
G1 X65.307 Y120.166 E15.36842
G1 X64.984 Y118.618 E15.41537
G1 X64.727 Y117.145 E15.45976
G1 X64.498 Y115.494 E15.50925
G1 X64.336 Y113.923 E15.55614
G1 X64.228 Y112.346 E15.60309
G1 X64.177 Y110.849 E15.64757
G1 X64.176 Y109.184 E15.69698
G1 X64.232 Y107.606 E15.74388
G1 X64.336 Y106.109 E15.78843
G1 X64.507 Y104.456 E15.83777
G1 X64.726 Y102.891 E15.88467
G1 X64.985 Y101.411 E15.92929
G1 X65.325 Y99.787 E15.97857
G1 X65.704 Y98.254 E16.02546
G1 X66.115 Y96.806 E16.07014
G1 X66.620 Y95.227 E16.11936
G1 X67.156 Y93.741 E16.16625
G1 X67.742 Y92.274 E16.21319
G1 X68.350 Y90.894 E16.25795
G1 X69.066 Y89.402 E16.30709
G1 X69.801 Y88.004 E16.35398
G1 X70.584 Y86.631 E16.40091
G1 X71.413 Y85.286 E16.44780
G1 X72.330 Y83.913 E16.49685
G1 X73.210 Y82.685 E16.54170
G1 X74.174 Y81.432 E16.58864
G1 X75.180 Y80.215 E16.63553
G1 X76.276 Y78.982 E16.68451
G1 X77.318 Y77.885 E16.72943
G1 X78.445 Y76.778 E16.77633
G1 X79.661 Y75.665 E16.82526
G1 X80.811 Y74.681 E16.87022
G1 X82.047 Y73.696 E16.91713
G1 X83.370 Y72.716 E16.96601
G1 X84.617 Y71.855 E17.01101
G1 X85.947 Y71.003 E17.05792
G1 X87.363 Y70.166 E17.10677
G1 X88.694 Y69.438 E17.15180
G1 X90.106 Y68.727 E17.19874
G1 X91.541 Y68.066 E17.24565
G1 X93.057 Y67.432 E17.29445
G1 X94.477 Y66.893 E17.33952
G1 X95.973 Y66.384 E17.38646
G1 X97.486 Y65.926 E17.43337
G1 X99.074 Y65.506 E17.48214
G1 X100.554 Y65.169 E17.52724
G1 X102.106 Y64.870 E17.57416
G1 X103.729 Y64.616 E17.62292
G1 X105.237 Y64.433 E17.66802
G1 X106.811 Y64.296 E17.71494
G1 X108.451 Y64.211 E17.76369
G1 X109.970 Y64.185 E17.80880
G1 X111.550 Y64.211 E17.85572
G1 X113.189 Y64.296 E17.90446 F1800.000
G1 X114.763 Y64.433 E17.95136
G1 X116.332 Y64.624 E17.99831
G1 X117.833 Y64.859 E18.04341
G1 X119.446 Y65.169 E18.09217
G1 X120.986 Y65.521 E18.13909
G1 X122.454 Y65.910 E18.18418
G1 X124.027 Y66.384 E18.23296
G1 X125.523 Y66.893 E18.27988
G1 X126.943 Y67.432 E18.32495
G1 X128.459 Y68.066 E18.37375
G1 X129.894 Y68.727 E18.42067
G1 X131.249 Y69.409 E18.46571
G1 X132.693 Y70.197 E18.51455
G1 X134.052 Y71.003 E18.56146
G1 X135.329 Y71.820 E18.60647
G1 X136.684 Y72.754 E18.65534
G1 X137.953 Y73.696 E18.70225
G1 X139.137 Y74.640 E18.74723
G1 X140.390 Y75.709 E18.79613
G1 X141.554 Y76.777 E18.84304
G1 X142.634 Y77.838 E18.88798
G1 X143.771 Y79.032 E18.93693
G1 X144.819 Y80.214 E18.98383
G1 X145.782 Y81.379 E19.02872
G1 X146.791 Y82.686 E19.07773
G1 X147.711 Y83.969 E19.12462
G1 X148.547 Y85.227 E19.16946
G1 X149.417 Y86.632 E19.21853
G1 X150.199 Y88.004 E19.26542
