; generated by Slic3r 1.2.9 on 2018-11-02 at 14:16:58

; external perimeters extrusion width = 0.40mm
; perimeters extrusion width = 0.68mm
; infill extrusion width = 1.28mm
; solid infill extrusion width = 0.68mm
; top infill extrusion width = 0.68mm
; support material extrusion width = 0.40mm

M107
M190 S55 ; set bed temperature
M104 S200 ; set temperature
G28 ; home all axes
G1 Z5 F5000 ; lift nozzle

G12 P1 S1 T3 ; clean printer w/zig zags
M109 S200 ; wait for temperature to be reached
G21 ; set units to millimeters
G90 ; use absolute coordinates
M82 ; use absolute distances for extrusion
G92 E0
G1 Z0.100 F7800.000
G1 E-4.00000 F600.00000
G92 E0
G1 X24.593 Y43.935 F7800.000
G1 E4.00000 F600.00000
G1 X27.500 Y43.209 E4.02224 F1800.000
G1 X192.500 Y43.209 E5.24701
G1 X194.678 Y43.606 E5.26344
G1 X196.577 Y44.745 E5.27988 F1800.000
G1 X197.952 Y46.481 E5.29631
G1 X198.679 Y49.387 E5.31856
G1 X198.679 Y93.462 E5.64571
G1 X198.282 Y95.641 E5.66215
G1 X196.714 Y97.981 E5.68306
G1 X114.222 Y174.906 E6.52031
G1 X112.358 Y176.102 E6.53675
G1 X110.008 Y176.566 E6.55453
G1 X107.814 Y176.169 E6.57108
G1 X105.778 Y174.906 E6.58886
G1 X23.286 Y97.981 E7.42611
G1 X21.964 Y96.205 E7.44254
G1 X21.321 Y93.462 E7.46345
G1 X21.321 Y49.387 E7.79061
G1 X21.718 Y47.209 E7.80705
G1 X22.858 Y45.310 E7.82348
G1 X24.546 Y43.973 E7.83947
G1 E3.83947 F600.00000
G92 E0
G1 X27.957 Y49.845 F7800.000
G1 E4.00000 F600.00000
G1 X192.043 Y49.845 E5.21798 F1800.000
G1 X192.043 Y93.264 E5.54027
G1 X109.992 Y169.763 E6.37297
G1 X27.957 Y93.264 E7.20558
G1 X27.957 Y49.905 E7.52742
G1 X27.779 Y49.666 F7800.000
G1 X192.221 Y49.666 E8.74805 F1800.000
G1 X192.221 Y93.341 E9.07225
G1 X109.992 Y170.007 E9.90675
G1 X27.779 Y93.341 E10.74117
G1 X27.779 Y49.726 E11.06492
G1 X27.600 Y49.487 F7800.000
G1 X192.400 Y49.487 E12.28820 F1800.000
G1 X192.400 Y93.419 E12.61430
G1 X109.992 Y170.251 E13.45062
G1 X27.600 Y93.419 E14.28685
G1 X27.600 Y49.547 E14.61250
G1 X27.946 Y49.687 F7800.000
G1 E10.61250 F600.00000
G92 E0
G1 X28.051 Y92.888 F7800.000
G1 E4.00000 F600.00000
G1 X32.283 Y97.120 E4.04447 F1800.000
G1 E0.04447 F600.00000
G92 E0
G1 X36.028 Y100.612 F7800.000
G1 E4.00000 F600.00000
G1 X28.051 Y92.635 E4.08382 F1800.000
G1 X28.051 Y92.382 E4.08569
G1 X39.773 Y104.104 E4.20886
G1 E0.20886 F600.00000
G92 E0
G1 X43.518 Y107.597 F7800.000
G1 E4.00000 F600.00000
G1 X28.051 Y92.130 E4.16251 F1800.000
G1 X28.051 Y91.877 E4.16439
G1 X47.263 Y111.089 E4.36625
G1 E0.36625 F600.00000
G92 E0
G1 X51.008 Y114.581 F7800.000
G1 E4.00000 F600.00000
G1 X28.051 Y91.624 E4.24121 F1800.000
G1 X28.051 Y91.372 E4.24309
G1 X54.753 Y118.073 E4.52365
G1 E0.52365 F600.00000
G92 E0
G1 X58.497 Y121.565 F7800.000
G1 E4.00000 F600.00000
G1 X28.051 Y91.119 E4.31991 F1800.000
G1 X28.051 Y90.866 E4.32179
G1 X62.242 Y125.058 E4.68104
G1 E0.68104 F600.00000
G92 E0
G1 X65.987 Y128.550 F7800.000
G1 E4.00000 F600.00000
G1 X28.051 Y90.613 E4.39861 F1800.000
G1 X28.051 Y90.361 E4.40048
G1 X69.732 Y132.042 E4.83844
G1 E0.83844 F600.00000
G92 E0
G1 X73.477 Y135.534 F7800.000
G1 E4.00000 F600.00000
G1 X28.051 Y90.108 E4.47730 F1800.000
G1 X28.051 Y89.855 E4.47918
G1 X77.222 Y139.026 E4.99584
G1 E0.99584 F600.00000
G92 E0
G1 X80.967 Y142.519 F7800.000
G1 E4.00000 F600.00000
G1 X28.051 Y89.602 E4.55600 F1800.000
G1 X28.051 Y89.350 E4.55788
G1 X84.712 Y146.011 E5.15323
G1 E1.15323 F600.00000
G92 E0
G1 X88.457 Y149.503 F7800.000
G1 E4.00000 F600.00000
G1 X28.051 Y89.097 E4.63470 F1800.000
G1 X28.051 Y88.844 E4.63658
G1 X92.202 Y152.995 E5.31063
G1 E1.31063 F600.00000
G92 E0
G1 X95.947 Y156.487 F7800.000
G1 E4.00000 F600.00000
G1 X28.051 Y88.592 E4.71340 F1800.000
G1 X28.051 Y88.339 E4.71528
G1 X99.692 Y159.980 E5.46802
G1 E1.46802 F600.00000
G92 E0
G1 X103.437 Y163.472 F7800.000
G1 E4.00000 F600.00000
G1 X28.051 Y88.086 E4.79210 F1800.000
G1 X28.051 Y87.833 E4.79397
G1 X107.182 Y166.964 E5.62542
G1 E1.62542 F600.00000
G92 E0
G1 X110.061 Y169.591 F7800.000
G1 E4.00000 F600.00000
G1 X28.051 Y87.581 E4.86170 F1800.000
G1 X28.051 Y87.328 E4.86358
G1 X110.192 Y169.469 E5.72666
G1 X110.323 Y169.347 E5.72799
G1 X28.051 Y87.075 E6.59244
G1 X28.051 Y86.822 E6.59432
G1 X110.454 Y169.225 E7.46014
G1 X110.585 Y169.103 E7.46147
G1 X28.051 Y86.570 E8.32867
G1 X28.051 Y86.317 E8.33055
G1 X110.715 Y168.981 E9.19912
G1 X110.846 Y168.859 E9.20045
G1 X28.051 Y86.064 E10.07040
G1 X28.051 Y85.812 E10.07228
G1 X110.977 Y168.738 E10.94360
G1 X111.108 Y168.616 E10.94493
G1 X28.051 Y85.559 E11.81762
G1 X28.051 Y85.306 E11.81950
G1 X111.239 Y168.494 E12.69357
G1 X111.369 Y168.372 E12.69490
G1 X28.051 Y85.053 E13.57035
G1 X28.051 Y84.801 E13.57222
G1 X111.500 Y168.250 E14.44904
G1 X111.631 Y168.128 E14.45037
G1 X28.051 Y84.548 E15.32857
G1 X28.051 Y84.295 E15.33044
G1 X111.762 Y168.006 E16.21001
G1 X111.892 Y167.884 E16.21134
G1 X28.051 Y84.042 E17.09228
G1 X28.051 Y83.790 E17.09416
G1 X112.023 Y167.762 E17.97648
G1 X112.154 Y167.640 E17.97781
G1 X28.051 Y83.537 E18.86150
G1 X28.051 Y83.284 E18.86337
G1 X112.285 Y167.518 E19.74844
G1 X112.416 Y167.396 E19.74977
G1 X28.051 Y83.032 E20.63621
G1 X28.051 Y82.779 E20.63808
G1 X112.546 Y167.274 E21.52590
G1 X112.677 Y167.152 E21.52723
G1 X28.051 Y82.526 E22.41641
G1 X28.051 Y82.273 E22.41829
G1 X112.808 Y167.030 E23.30885
G1 X112.939 Y166.908 E23.31018
G1 X28.051 Y82.021 E24.20212
G1 X28.051 Y81.768 E24.20400
G1 X113.070 Y166.787 E25.09731
G1 X113.200 Y166.665 E25.09863
G1 X28.051 Y81.515 E25.99332
G1 X28.051 Y81.262 E25.99520
G1 X113.331 Y166.543 E26.89125
G1 X113.462 Y166.421 E26.89258
G1 X28.051 Y81.010 E27.79002
G1 X28.051 Y80.757 E27.79189
G1 X113.593 Y166.299 E28.69070
G1 X113.724 Y166.177 E28.69203
G1 X28.051 Y80.504 E29.59221
G1 X28.051 Y80.251 E29.59409
G1 X113.854 Y166.055 E30.49564
G1 X113.985 Y165.933 E30.49697
G1 X28.051 Y79.999 E31.39990
G1 X28.051 Y79.746 E31.40178
G1 X114.116 Y165.811 E32.30608
G1 X114.247 Y165.689 E32.30741
G1 X28.051 Y79.493 E33.21309
G1 X28.051 Y79.241 E33.21497
G1 X114.377 Y165.567 E34.12202
G1 X114.508 Y165.445 E34.12335
G1 X28.051 Y78.988 E35.03178
G1 X28.051 Y78.735 E35.03365
G1 X114.639 Y165.323 E35.94346
G1 X114.770 Y165.201 E35.94478
G1 X28.051 Y78.482 E36.85596
G1 X28.051 Y78.230 E36.85784
G1 X114.901 Y165.079 E37.77039
G1 X115.031 Y164.957 E37.77172
G1 X28.051 Y77.977 E38.68564
G1 X28.051 Y77.724 E38.68752
G1 X115.162 Y164.835 E39.60281
G1 X115.293 Y164.714 E39.60414
G1 X28.051 Y77.471 E40.52082
G1 X28.051 Y77.219 E40.52269
G1 X115.424 Y164.592 E41.44074
G1 X115.555 Y164.470 E41.44207
G1 X28.051 Y76.966 E42.36149
G1 X28.051 Y76.713 E42.36337
G1 X115.685 Y164.348 E43.28416
G1 X115.816 Y164.226 E43.28549
G1 X28.051 Y76.461 E44.20766
G1 X28.051 Y76.208 E44.20954
G1 X115.947 Y164.104 E45.13308
G1 X116.078 Y163.982 E45.13441
G1 X28.051 Y75.955 E46.05933
G1 X28.051 Y75.702 E46.06120
G1 X116.209 Y163.860 E46.98750
G1 X116.339 Y163.738 E46.98882
G1 X28.051 Y75.450 E47.91649
G1 X28.051 Y75.197 E47.91837
G1 X116.470 Y163.616 E48.84741
G1 X116.601 Y163.494 E48.84874
G1 X28.051 Y74.944 E49.77915
G1 X28.051 Y74.691 E49.78103
G1 X116.732 Y163.372 E50.71282
G1 X116.862 Y163.250 E50.71415
G1 X28.051 Y74.439 E51.64731
G1 X28.051 Y74.186 E51.64919
G1 X116.993 Y163.128 E52.58372
G1 X117.124 Y163.006 E52.58505
G1 X28.051 Y73.933 E53.52096
G1 X28.051 Y73.681 E53.52284
G1 X117.255 Y162.884 E54.46013
G1 X117.386 Y162.762 E54.46146
G1 X28.051 Y73.428 E55.40012
G1 X28.051 Y73.175 E55.40199
G1 X117.516 Y162.641 E56.34203
G1 X117.647 Y162.519 E56.34336
G1 X28.051 Y72.922 E57.28476
G1 X28.051 Y72.670 E57.28664
G1 X117.778 Y162.397 E58.22942
G1 X117.909 Y162.275 E58.23075
G1 X28.051 Y72.417 E59.17491
G1 X28.051 Y72.164 E59.17679
G1 X118.040 Y162.153 E60.12232
G1 X118.170 Y162.031 E60.12365
G1 X28.051 Y71.911 E61.07055
G1 X28.051 Y71.659 E61.07243
G1 X118.301 Y161.909 E62.02071
G1 X118.432 Y161.787 E62.02204
G1 X28.051 Y71.406 E62.97169
G1 X28.051 Y71.153 E62.97357
G1 X118.563 Y161.665 E63.92460
G1 X118.693 Y161.543 E63.92593
G1 X28.051 Y70.901 E64.87833
G1 X28.051 Y70.648 E64.88020
G1 X118.824 Y161.421 E65.83398
G1 X118.955 Y161.299 E65.83531
G1 X28.051 Y70.395 E66.79046
G1 X28.051 Y70.142 E66.79234
G1 X119.086 Y161.177 E67.74886
G1 X119.217 Y161.055 E67.75019
G1 X28.051 Y69.890 E68.70809
G1 X28.051 Y69.637 E68.70997
G1 X119.347 Y160.933 E69.66924
G1 X119.478 Y160.811 E69.67057
G1 X28.051 Y69.384 E70.63122
G1 X28.051 Y69.131 E70.63310
G1 X119.609 Y160.690 E71.59512
G1 X119.740 Y160.568 E71.59645
G1 X28.051 Y68.879 E72.55984
G1 X28.051 Y68.626 E72.56172
G1 X119.871 Y160.446 E73.52649
G1 X120.001 Y160.324 E73.52782
G1 X28.051 Y68.373 E74.49396
G1 X28.051 Y68.121 E74.49584
G1 X120.132 Y160.202 E75.46336
G1 X120.263 Y160.080 E75.46469
G1 X28.051 Y67.868 E76.43358
G1 X28.051 Y67.615 E76.43546
G1 X120.394 Y159.958 E77.40572
G1 X120.525 Y159.836 E77.40705
G1 X28.051 Y67.362 E78.37869
G1 X28.051 Y67.110 E78.38057
G1 X120.655 Y159.714 E79.35359
G1 X120.786 Y159.592 E79.35492
G1 X28.051 Y66.857 E80.32931
G1 X28.051 Y66.604 E80.33118
G1 X120.917 Y159.470 E81.30695
G1 X121.048 Y159.348 E81.30828
G1 X28.051 Y66.351 E82.28541
G1 X28.051 Y66.099 E82.28729
G1 X121.178 Y159.226 E83.26580
G1 X121.309 Y159.104 E83.26713
G1 X28.051 Y65.846 E84.24702
G1 X28.051 Y65.593 E84.24890
G1 X121.440 Y158.982 E85.23016
G1 X121.571 Y158.860 E85.23149
G1 X28.051 Y65.341 E86.21412
G1 X28.051 Y65.088 E86.21600
G1 X121.702 Y158.738 E87.20001
G1 X121.832 Y158.617 E87.20134
G1 X28.051 Y64.835 E88.18672
G1 X28.051 Y64.582 E88.18860
G1 X121.963 Y158.495 E89.17536
G1 X122.094 Y158.373 E89.17669
G1 X28.051 Y64.330 E90.16482
G1 X28.051 Y64.077 E90.16670
G1 X122.225 Y158.251 E91.15620
G1 X122.356 Y158.129 E91.15753
G1 X28.051 Y63.824 E92.14841
G1 X28.051 Y63.571 E92.15029
G1 X122.486 Y158.007 E93.14254
G1 X122.617 Y157.885 E93.14387
G1 X28.051 Y63.319 E94.13750
G1 X28.051 Y63.066 E94.13938
G1 X122.748 Y157.763 E95.13438
G1 X122.879 Y157.641 E95.13571
G1 X28.051 Y62.813 E96.13209
G1 X28.051 Y62.561 E96.13397
G1 X123.010 Y157.519 E97.13172
G1 X123.140 Y157.397 E97.13305
G1 X28.051 Y62.308 E98.13217
G1 X28.051 Y62.055 E98.13405
G1 X123.271 Y157.275 E99.13455
G1 X123.402 Y157.153 E99.13588
G1 X28.051 Y61.802 E100.13775
G1 X28.051 Y61.550 E100.13963
G1 X123.533 Y157.031 E101.14288
G1 X123.663 Y156.909 E101.14421
G1 X28.051 Y61.297 E102.14883
G1 X28.051 Y61.044 E102.15071
G1 X123.794 Y156.787 E103.15671
G1 X123.925 Y156.666 E103.15803
G1 X28.051 Y60.791 E104.16540
G1 X28.051 Y60.539 E104.16728
G1 X124.056 Y156.544 E105.17603
G1 X124.187 Y156.422 E105.17736
G1 X28.051 Y60.286 E106.18748
G1 X28.051 Y60.033 E106.18935
G1 X124.317 Y156.300 E107.20085
G1 X124.448 Y156.178 E107.20218
G1 X28.051 Y59.780 E108.21504
G1 X28.051 Y59.528 E108.21692
G1 X124.579 Y156.056 E109.23117
G1 X124.710 Y155.934 E109.23249
G1 X28.051 Y59.275 E110.24811
G1 X28.051 Y59.022 E110.24999
G1 X124.841 Y155.812 E111.26698
G1 X124.971 Y155.690 E111.26831
G1 X28.051 Y58.770 E112.28667
G1 X28.051 Y58.517 E112.28855
G1 X125.102 Y155.568 E113.30829
G1 X125.233 Y155.446 E113.30962
G1 X28.051 Y58.264 E114.33073
G1 X28.051 Y58.011 E114.33261
G1 X125.364 Y155.324 E115.35510
G1 X125.495 Y155.202 E115.35643
G1 X28.051 Y57.759 E116.38029
G1 X28.051 Y57.506 E116.38217
G1 X125.625 Y155.080 E117.40740
G1 X125.756 Y154.958 E117.40873
G1 X28.051 Y57.253 E118.43534
G1 X28.051 Y57.000 E118.43722
G1 X125.887 Y154.836 E119.46520
G1 X126.018 Y154.714 E119.46653
G1 X28.051 Y56.748 E120.49589
G1 X28.051 Y56.495 E120.49777
G1 X126.148 Y154.593 E121.52850
G1 X126.279 Y154.471 E121.52983
G1 X28.051 Y56.242 E122.56194
G1 X28.051 Y55.990 E122.56382
G1 X126.410 Y154.349 E123.59730
G1 X126.541 Y154.227 E123.59863
G1 X28.051 Y55.737 E124.63348
G1 X28.051 Y55.484 E124.63536
G1 X126.672 Y154.105 E125.67159
G1 X126.802 Y153.983 E125.67292
G1 X28.051 Y55.231 E126.71052
G1 X28.051 Y54.979 E126.71240
G1 X126.933 Y153.861 E127.75138
G1 X127.064 Y153.739 E127.75271
G1 X28.051 Y54.726 E128.79306
G1 X28.051 Y54.473 E128.79494
G1 X127.195 Y153.617 E129.83666
G1 X127.326 Y153.495 E129.83799
G1 X28.051 Y54.220 E130.88109
G1 X28.051 Y53.968 E130.88297
G1 X127.456 Y153.373 E131.92745
G1 X127.587 Y153.251 E131.92878
G1 X28.051 Y53.715 E132.97463
G1 X28.051 Y53.462 E132.97650
G1 X127.718 Y153.129 E134.02373
G1 X127.849 Y153.007 E134.02506
G1 X28.051 Y53.210 E135.07365
G1 X28.051 Y52.957 E135.07553
G1 X127.980 Y152.885 E136.12550
G1 X128.110 Y152.763 E136.12683
G1 X28.051 Y52.704 E137.17818
G1 X28.051 Y52.451 E137.18006
G1 X128.241 Y152.642 E138.23278
G1 X128.372 Y152.520 E138.23411
G1 X28.051 Y52.199 E139.28820
G1 X28.051 Y51.946 E139.29008
G1 X128.503 Y152.398 E140.34555
G1 X128.633 Y152.276 E140.34688
G1 X28.051 Y51.693 E141.40372
G1 X28.051 Y51.440 E141.40560
G1 X128.764 Y152.154 E142.46382
G1 X128.895 Y152.032 E142.46514
G1 X28.051 Y51.188 E143.52474
G1 X28.051 Y50.935 E143.52661
G1 X129.026 Y151.910 E144.58758
G1 X129.157 Y151.788 E144.58891
G1 X28.051 Y50.682 E145.65125
G1 X28.051 Y50.430 E145.65313
G1 X129.287 Y151.666 E146.71684
G1 X129.418 Y151.544 E146.71817
G1 X28.051 Y50.177 E147.78326
G1 X28.078 Y49.951 E147.78495
G1 X129.549 Y151.422 E148.85112
G1 X129.680 Y151.300 E148.85245
G1 X28.318 Y49.938 E149.91748
G1 X28.571 Y49.938 E149.91936
G1 X129.811 Y151.178 E150.98311
G1 X129.941 Y151.056 E150.98444
G1 X28.823 Y49.938 E152.04691
G1 X29.076 Y49.938 E152.04879
G1 X130.072 Y150.934 E153.10997
G1 X130.203 Y150.812 E153.11130
G1 X29.329 Y49.938 E154.17121
G1 X29.582 Y49.938 E154.17309
G1 X130.334 Y150.690 E155.23171
G1 X130.464 Y150.569 E155.23304
G1 X29.834 Y49.938 E156.29038
G1 X30.087 Y49.938 E156.29226
G1 X130.595 Y150.447 E157.34832
G1 X130.726 Y150.325 E157.34965
G1 X30.340 Y49.938 E158.40443
G1 X30.593 Y49.938 E158.40631
G1 X130.857 Y150.203 E159.45981
G1 X130.988 Y150.081 E159.46114
G1 X30.845 Y49.938 E160.51336
G1 X31.098 Y49.938 E160.51524
G1 X131.118 Y149.959 E161.56617
G1 X131.249 Y149.837 E161.56750
G1 X31.351 Y49.938 E162.61716
G1 X31.603 Y49.938 E162.61904
G1 X131.380 Y149.715 E163.66741
G1 X131.511 Y149.593 E163.66874
G1 X31.856 Y49.938 E164.71583
G1 X32.109 Y49.938 E164.71771
G1 X131.642 Y149.471 E165.76352
G1 X131.772 Y149.349 E165.76485
G1 X32.362 Y49.938 E166.80938
G1 X32.614 Y49.938 E166.81126
G1 X131.903 Y149.227 E167.85451
G1 X132.034 Y149.105 E167.85584
G1 X32.867 Y49.938 E168.89781
G1 X33.120 Y49.938 E168.89969
G1 X132.165 Y148.983 E169.94037
G1 X132.296 Y148.861 E169.94170
G1 X33.373 Y49.938 E170.98111
G1 X33.625 Y49.938 E170.98299
G1 X132.426 Y148.739 E172.02111
G1 X132.557 Y148.618 E172.02244
G1 X33.878 Y49.938 E173.05928
G1 X34.131 Y49.938 E173.06116
G1 X132.688 Y148.496 E174.09672
G1 X132.819 Y148.374 E174.09805
G1 X34.383 Y49.938 E175.13233
G1 X34.636 Y49.938 E175.13421
G1 X132.949 Y148.252 E176.16721
G1 X133.080 Y148.130 E176.16854
G1 X34.889 Y49.938 E177.20026
G1 X35.142 Y49.938 E177.20214
G1 X133.211 Y148.008 E178.23257
G1 X133.342 Y147.886 E178.23390
G1 X35.394 Y49.938 E179.26306
G1 X35.647 Y49.938 E179.26494
G1 X133.473 Y147.764 E180.29281
G1 X133.603 Y147.642 E180.29414
G1 X35.900 Y49.938 E181.32073
G1 X36.153 Y49.938 E181.32261
G1 X133.734 Y147.520 E182.34792
G1 X133.865 Y147.398 E182.34925
G1 X36.405 Y49.938 E183.37328
G1 X36.658 Y49.938 E183.37516
G1 X133.996 Y147.276 E184.39791
G1 X134.127 Y147.154 E184.39924
G1 X36.911 Y49.938 E185.42071
G1 X37.164 Y49.938 E185.42259
G1 X134.257 Y147.032 E186.44277
G1 X134.388 Y146.910 E186.44410
G1 X37.416 Y49.938 E187.46301
G1 X37.669 Y49.938 E187.46489
G1 X134.519 Y146.788 E188.48251
G1 X134.650 Y146.666 E188.48384
G1 X37.922 Y49.938 E189.50018
G1 X38.174 Y49.938 E189.50206
G1 X134.781 Y146.545 E190.51712
G1 X134.911 Y146.423 E190.51845
G1 X38.427 Y49.938 E191.53223
G1 X38.680 Y49.938 E191.53411
G1 X135.042 Y146.301 E192.54661
G1 X135.173 Y146.179 E192.54794
G1 X38.933 Y49.938 E193.55916
G1 X39.185 Y49.938 E193.56104
G1 X135.304 Y146.057 E194.57097
G1 X135.434 Y145.935 E194.57230
G1 X39.438 Y49.938 E195.58096
G1 X39.691 Y49.938 E195.58284
G1 X135.565 Y145.813 E196.59021
G1 X135.696 Y145.691 E196.59154
G1 X39.944 Y49.938 E197.59763
G1 X40.196 Y49.938 E197.59951
G1 X135.827 Y145.569 E198.60432
